(.../Program Files (x86)/Eagle/ulp/pcb-gcode.ulp)
(Copyright 2005 - 2012 by John Johnson)
(See readme.txt for licensing terms.)
(This file generated from the board:)
(.../eagle/Active Load/Active Load.brd)
(Current profile is .../Eagle/ulp/profiles/generic.pp  )
(This file generated 27-1-2020 22:21:02)
(Settings from pcb-machine.h)
(  Tool Size)
(0.2000 )
(Z Axis Settings)
(  High     Up        Down     Drill)
(5.0000 	2.5400 	-0.2000 	-2.5000 )
(spindle on time = 2.0000)
(milling depth = -0.3000)
(text depth = -0.1000)
(tool change at 0.0000 -5.0000 5.0000 )
(feed rate xy = F508.00 )
(feed rate z  = F254.00 )
(Settings from pcb-defaults.h)
(isolate min = 0.1000)
(isolate max = 0.3000)
(isolate step = 0.2000)
(Generated bottom outlines, bottom drill, )
(Unit of measure: mm)
(Metric Mode)
G21
(Absolute Coordinates)
G90
G00 X0.0000 Y0.0000 
M03
G04 P2.000000
G00 Z2.5400 
G00 X-51.1000 Y52.4534 
G01 Z-0.2000 F254.00 
G01 X-51.1000 Y52.5366 F508.00 
G01 X-51.1005 Y52.6202 
G01 X-51.1000 Y52.6234 
G01 X-51.1000 Y52.6266 
G01 X-51.0870 Y52.7089 
G01 X-51.0744 Y52.7914 
G01 X-51.0734 Y52.7944 
G01 X-51.0729 Y52.7976 
G01 X-51.0471 Y52.8770 
G01 X-51.0218 Y52.9564 
G01 X-51.0204 Y52.9592 
G01 X-51.0194 Y52.9623 
G01 X-50.9814 Y53.0369 
G01 X-50.9441 Y53.1111 
G01 X-50.9423 Y53.1137 
G01 X-50.9408 Y53.1165 
G01 X-50.8916 Y53.1842 
G01 X-50.8431 Y53.2518 
G01 X-50.8390 Y53.2566 
G01 X-50.7800 Y53.3156 
G01 X-50.7214 Y53.3749 
G01 X-50.7189 Y53.3768 
G01 X-50.6490 Y53.4282 
G01 X-50.5819 Y53.4775 
G01 X-50.5791 Y53.4789 
G01 X-50.5765 Y53.4808 
G01 X-50.5023 Y53.5186 
G01 X-50.4281 Y53.5570 
G01 X-50.4251 Y53.5580 
G01 X-50.4223 Y53.5594 
G01 X-50.3430 Y53.5852 
G01 X-50.2638 Y53.6114 
G01 X-50.2606 Y53.6119 
G01 X-50.2576 Y53.6129 
G01 X-50.1750 Y53.6260 
G01 X-48.5802 Y53.8880 
G01 X-50.0324 Y53.8880 
G01 X-50.2534 Y53.9171 
G01 X-50.4686 Y53.9748 
G01 X-50.6745 Y54.0600 
G01 X-50.8675 Y54.1715 
G01 X-50.9881 Y54.2641 
G01 X-51.1491 Y54.2641 
G01 X-51.3550 Y54.2966 
G01 X-51.5532 Y54.3610 
G01 X-51.7388 Y54.4557 
G01 X-51.9074 Y54.5781 
G01 X-52.0548 Y54.7255 
G01 X-52.1773 Y54.8941 
G01 X-52.2719 Y55.0798 
G01 X-52.3363 Y55.2780 
G01 X-52.3689 Y55.4838 
G01 X-52.3689 Y55.6922 
G01 X-52.3363 Y55.8980 
G01 X-52.2719 Y56.0962 
G01 X-52.1773 Y56.2819 
G01 X-52.0548 Y56.4505 
G01 X-51.9074 Y56.5979 
G01 X-51.7388 Y56.7203 
G01 X-51.5532 Y56.8150 
G01 X-51.3550 Y56.8793 
G01 X-51.1491 Y56.9119 
G01 X-50.9881 Y56.9119 
G01 X-50.8675 Y57.0045 
G01 X-50.6745 Y57.1160 
G01 X-50.4686 Y57.2012 
G01 X-50.2534 Y57.2589 
G01 X-50.0324 Y57.2880 
G01 X-46.0949 Y57.2880 
G01 X-46.0786 Y57.2898 
G01 X-45.9836 Y57.2880 
G01 X-45.8886 Y57.2880 
G01 X-45.8722 Y57.2858 
G01 X-45.8557 Y57.2855 
G01 X-45.7619 Y57.2713 
G01 X-45.6676 Y57.2589 
G01 X-45.6517 Y57.2546 
G01 X-45.6354 Y57.2522 
G01 X-45.5441 Y57.2258 
G01 X-45.4524 Y57.2012 
G01 X-45.4372 Y57.1949 
G01 X-45.4213 Y57.1904 
G01 X-45.3342 Y57.1523 
G01 X-45.2465 Y57.1160 
G01 X-45.2322 Y57.1077 
G01 X-45.2171 Y57.1011 
G01 X-45.1358 Y57.0520 
G01 X-45.0535 Y57.0045 
G01 X-45.0404 Y56.9945 
G01 X-45.0263 Y56.9860 
G01 X-44.9520 Y56.9267 
G01 X-44.8767 Y56.8689 
G01 X-44.8651 Y56.8572 
G01 X-42.5431 Y55.0031 
G01 X-33.4335 Y47.7292 
G01 X-12.3968 Y47.7005 
G01 X-12.1759 Y47.8099 
G01 X-11.5248 Y49.9279 
G01 X-11.4171 Y52.2030 
G01 X-11.7436 Y52.5294 
G01 X-11.7436 Y53.4106 
G01 X-11.1206 Y54.0336 
G01 X-10.2394 Y54.0336 
G01 X-9.6164 Y53.4106 
G01 X-9.6164 Y52.5294 
G01 X-10.0191 Y52.1267 
G01 X-10.1282 Y49.8231 
G01 X-10.1264 Y49.8040 
G01 X-10.1315 Y49.7544 
G01 X-10.1338 Y49.7046 
G01 X-10.1385 Y49.6859 
G01 X-10.1404 Y49.6668 
G01 X-10.1551 Y49.6192 
G01 X-10.1671 Y49.5708 
G01 X-10.1753 Y49.5534 
G01 X-10.4550 Y48.6437 
G01 X-10.3636 Y48.6749 
G01 X-10.1452 Y48.7187 
G01 X-9.9228 Y48.7336 
G01 X-9.7004 Y48.7194 
G01 X-9.4818 Y48.6763 
G01 X-9.2706 Y48.6050 
G01 X-9.0706 Y48.5068 
G01 X-8.8851 Y48.3833 
G01 X-8.7173 Y48.2366 
G01 X-8.5701 Y48.0693 
G01 X-8.4460 Y47.8842 
G01 X-8.3471 Y47.6845 
G01 X-8.2751 Y47.4736 
G01 X-8.2313 Y47.2552 
G01 X-8.2164 Y47.0328 
G01 X-8.2306 Y46.8104 
G01 X-8.2737 Y46.5918 
G01 X-8.3450 Y46.3806 
G01 X-8.4432 Y46.1806 
G01 X-8.5667 Y45.9951 
G01 X-8.7134 Y45.8273 
G01 X-8.8807 Y45.6801 
G01 X-9.0658 Y45.5560 
G01 X-11.1980 Y44.5001 
G01 X-11.2486 Y44.4710 
G01 X-11.2978 Y44.4507 
G01 X-11.3455 Y44.4271 
G01 X-11.4007 Y44.4083 
G01 X-11.4546 Y44.3860 
G01 X-11.5060 Y44.3723 
G01 X-11.5564 Y44.3551 
G01 X-11.6136 Y44.3437 
G01 X-11.6699 Y44.3286 
G01 X-11.7227 Y44.3218 
G01 X-11.7748 Y44.3113 
G01 X-11.8330 Y44.3074 
G01 X-11.8909 Y44.2998 
G01 X-11.9441 Y44.2999 
G01 X-11.9972 Y44.2964 
G01 X-12.0554 Y44.3001 
G01 X-33.9362 Y44.3299 
G01 X-33.9514 Y44.3282 
G01 X-34.0475 Y44.3300 
G01 X-34.1437 Y44.3302 
G01 X-34.1589 Y44.3322 
G01 X-34.1743 Y44.3325 
G01 X-34.2692 Y44.3469 
G01 X-34.3646 Y44.3595 
G01 X-34.3794 Y44.3635 
G01 X-34.3946 Y44.3658 
G01 X-34.4870 Y44.3925 
G01 X-34.5798 Y44.4175 
G01 X-34.5940 Y44.4234 
G01 X-34.6087 Y44.4276 
G01 X-34.6968 Y44.4662 
G01 X-34.7856 Y44.5031 
G01 X-34.7988 Y44.5108 
G01 X-34.8129 Y44.5169 
G01 X-34.8953 Y44.5666 
G01 X-34.9784 Y44.6148 
G01 X-34.9906 Y44.6241 
G01 X-35.0037 Y44.6320 
G01 X-35.0789 Y44.6921 
G01 X-35.1550 Y44.7507 
G01 X-35.1659 Y44.7615 
G01 X-44.4905 Y52.2072 
G01 X-44.6185 Y52.3094 
G01 X-49.7394 Y51.4681 
G01 X-49.7424 Y51.4671 
G01 X-49.8247 Y51.4541 
G01 X-49.9071 Y51.4405 
G01 X-49.9103 Y51.4405 
G01 X-49.9134 Y51.4400 
G01 X-49.9966 Y51.4400 
G01 X-50.0802 Y51.4395 
G01 X-50.0834 Y51.4400 
G01 X-50.0866 Y51.4400 
G01 X-50.1689 Y51.4530 
G01 X-50.2514 Y51.4656 
G01 X-50.2544 Y51.4666 
G01 X-50.2576 Y51.4671 
G01 X-50.3370 Y51.4929 
G01 X-50.4164 Y51.5182 
G01 X-50.4192 Y51.5196 
G01 X-50.4223 Y51.5206 
G01 X-50.4969 Y51.5586 
G01 X-50.5711 Y51.5959 
G01 X-50.5737 Y51.5977 
G01 X-50.5765 Y51.5992 
G01 X-50.6442 Y51.6484 
G01 X-50.7118 Y51.6969 
G01 X-50.7166 Y51.7010 
G01 X-50.7756 Y51.7600 
G01 X-50.8349 Y51.8186 
G01 X-50.8368 Y51.8211 
G01 X-50.8882 Y51.8910 
G01 X-50.9375 Y51.9581 
G01 X-50.9389 Y51.9609 
G01 X-50.9408 Y51.9635 
G01 X-50.9786 Y52.0377 
G01 X-51.0170 Y52.1119 
G01 X-51.0180 Y52.1149 
G01 X-51.0194 Y52.1177 
G01 X-51.0452 Y52.1970 
G01 X-51.0714 Y52.2762 
G01 X-51.0719 Y52.2794 
G01 X-51.0729 Y52.2824 
G01 X-51.0860 Y52.3648 
G01 X-51.0995 Y52.4471 
G01 X-51.0995 Y52.4503 
G01 X-51.1000 Y52.4534 
G00 Z2.5400 
G00 X-18.4747 Y49.3164 
G01 Z-0.2000 F254.00 
G01 X-18.4937 Y49.3230 F508.00 
G01 X-18.5134 Y49.3269 
G01 X-18.5586 Y49.3456 
G01 X-23.0996 Y50.9297 
G01 X-23.1181 Y50.9333 
G01 X-23.1646 Y50.9524 
G01 X-23.2121 Y50.9690 
G01 X-23.2283 Y50.9785 
G01 X-23.2457 Y50.9856 
G01 X-23.2875 Y51.0134 
G01 X-23.3309 Y51.0389 
G01 X-23.3449 Y51.0514 
G01 X-23.3606 Y51.0618 
G01 X-23.3963 Y51.0972 
G01 X-23.4338 Y51.1307 
G01 X-23.4451 Y51.1457 
G01 X-23.4585 Y51.1589 
G01 X-23.4866 Y51.2007 
G01 X-23.5168 Y51.2408 
G01 X-23.5250 Y51.2577 
G01 X-23.5355 Y51.2733 
G01 X-23.5549 Y51.3197 
G01 X-23.5768 Y51.3650 
G01 X-23.5815 Y51.3832 
G01 X-23.5887 Y51.4005 
G01 X-23.5987 Y51.4497 
G01 X-23.6113 Y51.4985 
G01 X-23.6124 Y51.5172 
G01 X-23.6161 Y51.5356 
G01 X-23.6163 Y51.5859 
G01 X-23.6192 Y51.6361 
G01 X-23.6166 Y51.6547 
G01 X-23.6998 Y73.9346 
G01 X-23.7009 Y73.9406 
G01 X-23.7000 Y74.0034 
G01 X-23.7003 Y74.0663 
G01 X-23.6991 Y74.0724 
G01 X-23.6990 Y74.0785 
G01 X-23.6859 Y74.1399 
G01 X-23.6739 Y74.2017 
G01 X-23.6715 Y74.2074 
G01 X-23.6702 Y74.2134 
G01 X-23.6454 Y74.2711 
G01 X-23.6216 Y74.3293 
G01 X-23.6182 Y74.3344 
G01 X-23.6157 Y74.3400 
G01 X-23.5800 Y74.3919 
G01 X-23.5454 Y74.4442 
G01 X-23.5411 Y74.4485 
G01 X-23.5376 Y74.4536 
G01 X-23.4925 Y74.4975 
G01 X-23.4483 Y74.5421 
G01 X-23.4432 Y74.5455 
G01 X-23.4387 Y74.5498 
G01 X-23.3860 Y74.5840 
G01 X-23.3339 Y74.6191 
G01 X-23.3282 Y74.6215 
G01 X-23.3231 Y74.6248 
G01 X-23.2646 Y74.6481 
G01 X-23.2067 Y74.6723 
G01 X-23.2007 Y74.6735 
G01 X-23.1950 Y74.6758 
G01 X-23.1331 Y74.6872 
G01 X-23.0716 Y74.6997 
G01 X-23.0654 Y74.6998 
G01 X-14.3753 Y76.3051 
G01 X-14.3194 Y76.3424 
G01 X-14.1813 Y76.3996 
G01 X-14.0347 Y76.4288 
G01 X-13.8853 Y76.4288 
G01 X-13.7387 Y76.3996 
G01 X-13.6006 Y76.3424 
G01 X-13.4763 Y76.2594 
G01 X-13.3706 Y76.1537 
G01 X-13.2876 Y76.0294 
G01 X-13.2304 Y75.8913 
G01 X-13.2012 Y75.7447 
G01 X-13.2012 Y75.5953 
G01 X-13.2304 Y75.4487 
G01 X-13.2876 Y75.3106 
G01 X-13.3706 Y75.1863 
G01 X-13.4763 Y75.0806 
G01 X-13.6006 Y74.9976 
G01 X-13.7387 Y74.9404 
G01 X-13.8853 Y74.9112 
G01 X-14.0347 Y74.9112 
G01 X-14.1211 Y74.9284 
G01 X-22.2978 Y73.4179 
G01 X-22.2183 Y52.1050 
G01 X-18.1906 Y50.7000 
G01 X-14.2899 Y50.7000 
G01 X-13.9200 Y51.0699 
G01 X-13.9200 Y52.1658 
G01 X-14.2836 Y52.5294 
G01 X-14.2836 Y53.4106 
G01 X-13.6606 Y54.0336 
G01 X-12.7794 Y54.0336 
G01 X-12.1564 Y53.4106 
G01 X-12.1564 Y52.5294 
G01 X-12.5200 Y52.1658 
G01 X-12.5200 Y50.7111 
G01 X-12.5469 Y50.5758 
G01 X-12.5997 Y50.4484 
G01 X-12.6763 Y50.3338 
G01 X-12.7738 Y50.2363 
G01 X-13.5538 Y49.4563 
G01 X-13.6684 Y49.3797 
G01 X-13.7958 Y49.3269 
G01 X-13.9311 Y49.3000 
G01 X-18.2892 Y49.3000 
G01 X-18.3381 Y49.2972 
G01 X-18.3580 Y49.3000 
G01 X-18.3781 Y49.3000 
G01 X-18.4262 Y49.3096 
G01 X-18.4747 Y49.3164 
G00 Z2.5400 
G00 X-9.2036 Y52.5294 
G01 Z-0.2000 F254.00 
G01 X-9.2036 Y53.4106 F508.00 
G01 X-8.5806 Y54.0336 
G01 X-7.6994 Y54.0336 
G01 X-7.0764 Y53.4106 
G01 X-7.0764 Y52.5294 
G01 X-7.1930 Y52.4128 
G01 X-6.3473 Y50.0835 
G01 X-6.3269 Y50.0342 
G01 X-6.3238 Y50.0188 
G01 X-6.3185 Y50.0041 
G01 X-6.3104 Y49.9513 
G01 X-6.3000 Y49.8989 
G01 X-6.3000 Y49.8833 
G01 X-6.2976 Y49.8678 
G01 X-6.3000 Y49.8144 
G01 X-6.3000 Y43.0008 
G01 X-6.2999 Y42.9318 
G01 X-6.3134 Y42.8638 
G01 X-6.3267 Y42.7965 
G01 X-6.3530 Y42.7329 
G01 X-6.3793 Y42.6691 
G01 X-6.4170 Y42.6125 
G01 X-8.3795 Y39.6688 
G01 X-8.4166 Y39.6131 
G01 X-8.4558 Y39.5543 
G01 X-8.5038 Y39.5063 
G01 X-8.5532 Y39.4567 
G01 X-8.6099 Y39.4188 
G01 X-8.6678 Y39.3800 
G01 X-8.7323 Y39.3532 
G01 X-8.7951 Y39.3271 
G01 X-8.8637 Y39.3134 
G01 X-8.9303 Y39.3001 
G01 X-8.9993 Y39.3000 
G01 X-9.0682 Y39.2999 
G01 X-44.9603 Y39.3000 
G01 X-44.9893 Y39.2967 
G01 X-45.0291 Y39.3000 
G01 X-45.0689 Y39.3000 
G01 X-45.0976 Y39.3057 
G01 X-45.1267 Y39.3081 
G01 X-45.1650 Y39.3191 
G01 X-45.2042 Y39.3269 
G01 X-45.2312 Y39.3381 
G01 X-45.2593 Y39.3461 
G01 X-45.2947 Y39.3644 
G01 X-45.3316 Y39.3797 
G01 X-45.3559 Y39.3959 
G01 X-45.3818 Y39.4093 
G01 X-45.4131 Y39.4341 
G01 X-45.4462 Y39.4563 
G01 X-45.4669 Y39.4769 
G01 X-45.4897 Y39.4951 
G01 X-45.5155 Y39.5256 
G01 X-45.5437 Y39.5538 
G01 X-45.5599 Y39.5781 
G01 X-45.5788 Y39.6004 
G01 X-45.5982 Y39.6353 
G01 X-45.6203 Y39.6684 
G01 X-45.6315 Y39.6954 
G01 X-45.6457 Y39.7210 
G01 X-45.6578 Y39.7590 
G01 X-45.6731 Y39.7958 
G01 X-45.6788 Y39.8245 
G01 X-46.9229 Y43.7120 
G01 X-47.6691 Y43.7120 
G01 X-47.7872 Y43.5495 
G01 X-47.9346 Y43.4021 
G01 X-48.1031 Y43.2797 
G01 X-48.2888 Y43.1850 
G01 X-48.4870 Y43.1207 
G01 X-48.6928 Y43.0881 
G01 X-51.1491 Y43.0881 
G01 X-51.3550 Y43.1207 
G01 X-51.5532 Y43.1850 
G01 X-51.7388 Y43.2797 
G01 X-51.9074 Y43.4021 
G01 X-52.0548 Y43.5495 
G01 X-52.1773 Y43.7181 
G01 X-52.2719 Y43.9038 
G01 X-52.3363 Y44.1020 
G01 X-52.3689 Y44.3078 
G01 X-52.3689 Y44.5162 
G01 X-52.3363 Y44.7220 
G01 X-52.2719 Y44.9202 
G01 X-52.1773 Y45.1059 
G01 X-52.0548 Y45.2745 
G01 X-51.9074 Y45.4218 
G01 X-51.7388 Y45.5443 
G01 X-51.5532 Y45.6390 
G01 X-51.3550 Y45.7033 
G01 X-51.1491 Y45.7359 
G01 X-48.6928 Y45.7359 
G01 X-48.4870 Y45.7033 
G01 X-48.2888 Y45.6390 
G01 X-48.1031 Y45.5443 
G01 X-47.9346 Y45.4218 
G01 X-47.7872 Y45.2745 
G01 X-47.6691 Y45.1120 
G01 X-47.4979 Y45.1120 
G01 X-48.2456 Y46.7613 
G01 X-49.1484 Y46.7606 
G01 X-49.1610 Y46.7434 
G01 X-49.2834 Y46.6210 
G01 X-49.4235 Y46.5192 
G01 X-49.5777 Y46.4406 
G01 X-49.7424 Y46.3871 
G01 X-49.9134 Y46.3600 
G01 X-50.0866 Y46.3600 
G01 X-50.2576 Y46.3871 
G01 X-50.4223 Y46.4406 
G01 X-50.5765 Y46.5192 
G01 X-50.7166 Y46.6210 
G01 X-50.8390 Y46.7434 
G01 X-50.9408 Y46.8835 
G01 X-51.0194 Y47.0377 
G01 X-51.0729 Y47.2024 
G01 X-51.1000 Y47.3734 
G01 X-51.1000 Y47.5466 
G01 X-51.0729 Y47.7176 
G01 X-51.0194 Y47.8823 
G01 X-50.9408 Y48.0365 
G01 X-50.8390 Y48.1766 
G01 X-50.7166 Y48.2990 
G01 X-50.5765 Y48.4008 
G01 X-50.4223 Y48.4794 
G01 X-50.2576 Y48.5329 
G01 X-50.0866 Y48.5600 
G01 X-49.9134 Y48.5600 
G01 X-49.7424 Y48.5329 
G01 X-49.5777 Y48.4794 
G01 X-49.4235 Y48.4008 
G01 X-49.2834 Y48.2990 
G01 X-49.1610 Y48.1766 
G01 X-49.1494 Y48.1606 
G01 X-47.8063 Y48.1617 
G01 X-47.7486 Y48.1636 
G01 X-47.7374 Y48.1617 
G01 X-47.7261 Y48.1617 
G01 X-47.6695 Y48.1505 
G01 X-47.6126 Y48.1411 
G01 X-47.6019 Y48.1371 
G01 X-47.5908 Y48.1349 
G01 X-47.5375 Y48.1129 
G01 X-47.4835 Y48.0926 
G01 X-47.4739 Y48.0866 
G01 X-47.4634 Y48.0823 
G01 X-47.4154 Y48.0502 
G01 X-47.3664 Y48.0198 
G01 X-47.3581 Y48.0120 
G01 X-47.3487 Y48.0057 
G01 X-47.3079 Y47.9650 
G01 X-47.2657 Y47.9256 
G01 X-47.2591 Y47.9163 
G01 X-47.2511 Y47.9083 
G01 X-47.2190 Y47.8604 
G01 X-47.1854 Y47.8135 
G01 X-47.1807 Y47.8032 
G01 X-47.1744 Y47.7937 
G01 X-47.1523 Y47.7404 
G01 X-45.7981 Y44.7532 
G01 X-45.7917 Y44.7436 
G01 X-45.7805 Y44.7166 
G01 X-45.7663 Y44.6910 
G01 X-45.7577 Y44.6640 
G01 X-45.7460 Y44.6382 
G01 X-45.7433 Y44.6269 
G01 X-45.7389 Y44.6162 
G01 X-45.7332 Y44.5875 
G01 X-44.4891 Y40.7000 
G01 X-9.3746 Y40.7000 
G01 X-7.7000 Y43.2119 
G01 X-7.7000 Y49.7069 
G01 X-8.4986 Y51.9064 
G01 X-8.5806 Y51.9064 
G01 X-9.2036 Y52.5294 
G00 Z2.5400 
G00 X-14.2836 Y60.1494 
G01 Z-0.2000 F254.00 
G01 X-14.2836 Y61.0306 F508.00 
G01 X-13.6606 Y61.6536 
G01 X-12.7794 Y61.6536 
G01 X-12.4158 Y61.2900 
G01 X-11.4842 Y61.2900 
G01 X-11.1206 Y61.6536 
G01 X-10.2394 Y61.6536 
G01 X-9.6164 Y61.0306 
G01 X-9.6164 Y60.1494 
G01 X-10.2394 Y59.5264 
G01 X-11.1206 Y59.5264 
G01 X-11.4842 Y59.8900 
G01 X-12.4158 Y59.8900 
G01 X-12.7794 Y59.5264 
G01 X-13.6606 Y59.5264 
G01 X-14.2836 Y60.1494 
G00 Z2.5400 
G00 X-7.1433 Y17.1980 
G01 Z-0.2000 F254.00 
G01 X-7.3420 Y17.1980 F508.00 
G01 X-7.4419 Y17.1331 
G01 X-7.6094 Y17.0584 
G01 X-7.7865 Y17.0109 
G01 X-7.9689 Y16.9916 
G01 X-10.4793 Y17.1221 
G01 X-10.5565 Y17.0478 
G01 X-10.7359 Y16.9156 
G01 X-10.9309 Y16.8079 
G01 X-11.1384 Y16.7266 
G01 X-11.3547 Y16.6730 
G01 X-11.5762 Y16.6482 
G01 X-11.7990 Y16.6525 
G01 X-12.0194 Y16.6858 
G01 X-12.2335 Y16.7476 
G01 X-57.6656 Y36.5956 
G01 X-57.7535 Y36.6320 
G01 X-57.7677 Y36.6402 
G01 X-57.7827 Y36.6468 
G01 X-57.8641 Y36.6959 
G01 X-57.9465 Y36.7435 
G01 X-57.9595 Y36.7534 
G01 X-57.9735 Y36.7619 
G01 X-58.0478 Y36.8212 
G01 X-58.1233 Y36.8791 
G01 X-58.1349 Y36.8907 
G01 X-58.1477 Y36.9009 
G01 X-58.2136 Y36.9695 
G01 X-58.2809 Y37.0367 
G01 X-58.2908 Y37.0497 
G01 X-58.3022 Y37.0615 
G01 X-58.3586 Y37.1381 
G01 X-58.4165 Y37.2135 
G01 X-58.4247 Y37.2277 
G01 X-58.4344 Y37.2409 
G01 X-58.4804 Y37.3241 
G01 X-58.5280 Y37.4065 
G01 X-58.5342 Y37.4216 
G01 X-58.5421 Y37.4359 
G01 X-58.5768 Y37.5245 
G01 X-58.6132 Y37.6124 
G01 X-58.6175 Y37.6282 
G01 X-58.6234 Y37.6434 
G01 X-58.6463 Y37.7358 
G01 X-58.6709 Y37.8276 
G01 X-58.6730 Y37.8439 
G01 X-58.6770 Y37.8597 
G01 X-58.6876 Y37.9543 
G01 X-58.7000 Y38.0486 
G01 X-58.7000 Y38.0649 
G01 X-58.7018 Y38.0812 
G01 X-58.7000 Y38.1763 
G01 X-58.7000 Y48.1114 
G01 X-58.6709 Y48.3324 
G01 X-58.6132 Y48.5476 
G01 X-58.5280 Y48.7535 
G01 X-58.4165 Y48.9465 
G01 X-58.2809 Y49.1233 
G01 X-56.1233 Y51.2809 
G01 X-55.9465 Y51.4165 
G01 X-55.7535 Y51.5280 
G01 X-55.5476 Y51.6132 
G01 X-55.3324 Y51.6709 
G01 X-55.1114 Y51.7000 
G01 X-54.8886 Y51.7000 
G01 X-54.6676 Y51.6709 
G01 X-54.4524 Y51.6132 
G01 X-54.2465 Y51.5280 
G01 X-54.0535 Y51.4165 
G01 X-53.8767 Y51.2809 
G01 X-53.7958 Y51.2000 
G01 X-51.6061 Y51.2000 
G01 X-51.5532 Y51.2270 
G01 X-51.3550 Y51.2913 
G01 X-51.1491 Y51.3239 
G01 X-48.6928 Y51.3239 
G01 X-48.4870 Y51.2913 
G01 X-48.2888 Y51.2270 
G01 X-48.1031 Y51.1323 
G01 X-47.9346 Y51.0099 
G01 X-47.7872 Y50.8625 
G01 X-47.6647 Y50.6939 
G01 X-47.5701 Y50.5082 
G01 X-47.5057 Y50.3100 
G01 X-47.4731 Y50.1042 
G01 X-47.4731 Y49.8958 
G01 X-47.5057 Y49.6900 
G01 X-47.5701 Y49.4918 
G01 X-47.6647 Y49.3061 
G01 X-47.7872 Y49.1375 
G01 X-47.9346 Y48.9901 
G01 X-48.1031 Y48.8677 
G01 X-48.2888 Y48.7730 
G01 X-48.4870 Y48.7087 
G01 X-48.6928 Y48.6761 
G01 X-51.1491 Y48.6761 
G01 X-51.3550 Y48.7087 
G01 X-51.5532 Y48.7730 
G01 X-51.6061 Y48.8000 
G01 X-53.7958 Y48.8000 
G01 X-55.3000 Y47.2958 
G01 X-55.3000 Y39.2725 
G01 X-10.8723 Y19.8632 
G01 X-10.6815 Y19.7481 
G01 X-10.5073 Y19.6091 
G01 X-10.3534 Y19.4491 
G01 X-7.8479 Y19.3189 
G01 X-7.6685 Y19.2808 
G01 X-7.4973 Y19.2152 
G01 X-7.3384 Y19.1235 
G01 X-7.1433 Y19.1220 
G01 X-6.9574 Y19.0850 
G01 X-6.7823 Y19.0125 
G01 X-6.6248 Y18.9072 
G01 X-6.4908 Y18.7732 
G01 X-6.3855 Y18.6157 
G01 X-6.3130 Y18.4406 
G01 X-6.2760 Y18.2547 
G01 X-6.2760 Y18.0653 
G01 X-6.3130 Y17.8794 
G01 X-6.3855 Y17.7043 
G01 X-6.4908 Y17.5468 
G01 X-6.6248 Y17.4128 
G01 X-6.7823 Y17.3075 
G01 X-6.9574 Y17.2350 
G01 X-7.1433 Y17.1980 
G00 Z2.5400 
G00 X-5.8604 Y75.9136 
G01 Z-0.2000 F254.00 
G01 X-5.8604 Y76.6264 F508.00 
G01 X-5.3564 Y77.1304 
G01 X-4.6436 Y77.1304 
G01 X-4.4649 Y76.9517 
G01 X-3.9227 Y76.9327 
G01 X-5.2899 Y78.3000 
G01 X-9.8149 Y78.3000 
G01 X-10.8560 Y77.7082 
G01 X-10.8706 Y77.6863 
G01 X-10.9763 Y77.5806 
G01 X-11.1006 Y77.4976 
G01 X-11.2387 Y77.4404 
G01 X-11.3853 Y77.4112 
G01 X-11.5347 Y77.4112 
G01 X-11.6813 Y77.4404 
G01 X-11.8194 Y77.4976 
G01 X-11.9437 Y77.5806 
G01 X-12.0494 Y77.6863 
G01 X-12.1324 Y77.8106 
G01 X-12.1896 Y77.9487 
G01 X-12.2188 Y78.0953 
G01 X-12.2188 Y78.2447 
G01 X-12.1896 Y78.3913 
G01 X-12.1324 Y78.5294 
G01 X-12.0494 Y78.6537 
G01 X-11.9437 Y78.7594 
G01 X-11.8194 Y78.8424 
G01 X-11.6813 Y78.8996 
G01 X-11.5453 Y78.9267 
G01 X-10.3679 Y79.5961 
G01 X-10.3316 Y79.6203 
G01 X-10.3081 Y79.6300 
G01 X-10.2860 Y79.6426 
G01 X-10.2445 Y79.6564 
G01 X-10.2042 Y79.6731 
G01 X-10.1793 Y79.6781 
G01 X-10.1552 Y79.6861 
G01 X-10.1118 Y79.6915 
G01 X-10.0689 Y79.7000 
G01 X-10.0435 Y79.7000 
G01 X-10.0183 Y79.7031 
G01 X-9.9748 Y79.7000 
G01 X-4.9311 Y79.7000 
G01 X-4.7958 Y79.6731 
G01 X-4.6684 Y79.6203 
G01 X-4.5538 Y79.5437 
G01 X-4.4563 Y79.4462 
G01 X-2.5538 Y77.5437 
G01 X-2.4563 Y77.4462 
G01 X-2.3797 Y77.3316 
G01 X-2.3269 Y77.2042 
G01 X-2.3000 Y77.0689 
G01 X-2.3000 Y76.2566 
G01 X-2.2980 Y76.2444 
G01 X-2.3000 Y76.1878 
G01 X-2.3000 Y73.7166 
G01 X-2.2980 Y73.7044 
G01 X-2.3000 Y73.6478 
G01 X-2.3000 Y71.9311 
G01 X-2.3269 Y71.7958 
G01 X-2.3797 Y71.6684 
G01 X-2.4563 Y71.5538 
G01 X-2.5538 Y71.4563 
G01 X-7.4933 Y66.5168 
G01 X-7.5285 Y66.4780 
G01 X-7.5420 Y66.4681 
G01 X-7.5538 Y66.4563 
G01 X-7.5973 Y66.4272 
G01 X-7.6394 Y66.3961 
G01 X-7.6545 Y66.3890 
G01 X-7.6684 Y66.3797 
G01 X-7.7168 Y66.3596 
G01 X-7.7641 Y66.3373 
G01 X-7.7804 Y66.3333 
G01 X-7.7958 Y66.3269 
G01 X-7.8472 Y66.3167 
G01 X-15.1300 Y64.5052 
G01 X-15.0745 Y61.4087 
G01 X-14.6964 Y61.0306 
G01 X-14.6964 Y60.1494 
G01 X-15.3194 Y59.5264 
G01 X-16.2006 Y59.5264 
G01 X-16.8236 Y60.1494 
G01 X-16.8236 Y61.0306 
G01 X-16.4742 Y61.3799 
G01 X-16.5392 Y65.0107 
G01 X-16.5432 Y65.0526 
G01 X-16.5415 Y65.0691 
G01 X-16.5423 Y65.0857 
G01 X-16.5408 Y65.0960 
G01 X-16.5410 Y65.1064 
G01 X-16.5335 Y65.1479 
G01 X-16.4279 Y66.1793 
G01 X-16.5812 Y66.3326 
G01 X-16.5812 Y67.0874 
G01 X-16.0474 Y67.6212 
G01 X-15.2926 Y67.6212 
G01 X-14.7588 Y67.0874 
G01 X-14.7588 Y66.3326 
G01 X-15.0330 Y66.0584 
G01 X-15.0421 Y65.9697 
G01 X-8.3575 Y67.6324 
G01 X-3.7000 Y72.2899 
G01 X-3.7000 Y72.9841 
G01 X-4.5011 Y73.0121 
G01 X-4.6436 Y72.8696 
G01 X-5.3564 Y72.8696 
G01 X-5.8604 Y73.3736 
G01 X-5.8604 Y74.0864 
G01 X-5.3564 Y74.5904 
G01 X-4.6436 Y74.5904 
G01 X-4.4649 Y74.4117 
G01 X-3.7000 Y74.3849 
G01 X-3.7000 Y75.5241 
G01 X-4.5011 Y75.5521 
G01 X-4.6436 Y75.4096 
G01 X-5.3564 Y75.4096 
G01 X-5.8604 Y75.9136 
G00 Z2.5400 
G00 X-14.1433 Y4.2780 
G01 Z-0.2000 F254.00 
G01 X-14.3000 Y4.2780 F508.00 
G01 X-14.3000 Y3.7000 
G01 X-12.3270 Y3.7000 
G01 X-9.4639 Y7.1214 
G01 X-9.5092 Y7.1668 
G01 X-9.6145 Y7.3243 
G01 X-9.6870 Y7.4994 
G01 X-9.7240 Y7.6853 
G01 X-9.7240 Y7.8747 
G01 X-9.6870 Y8.0606 
G01 X-9.6145 Y8.2357 
G01 X-9.5092 Y8.3932 
G01 X-9.3752 Y8.5272 
G01 X-9.2177 Y8.6325 
G01 X-9.0426 Y8.7050 
G01 X-8.8567 Y8.7420 
G01 X-7.1433 Y8.7420 
G01 X-6.9574 Y8.7050 
G01 X-6.7823 Y8.6325 
G01 X-6.6248 Y8.5272 
G01 X-6.4908 Y8.3932 
G01 X-6.3855 Y8.2357 
G01 X-6.3130 Y8.0606 
G01 X-6.2760 Y7.8747 
G01 X-6.2760 Y7.6853 
G01 X-6.3130 Y7.4994 
G01 X-6.3855 Y7.3243 
G01 X-6.4908 Y7.1668 
G01 X-6.6248 Y7.0328 
G01 X-6.7823 Y6.9275 
G01 X-6.9574 Y6.8550 
G01 X-7.1433 Y6.8180 
G01 X-7.8923 Y6.8180 
G01 X-11.4389 Y2.5797 
G01 X-11.4563 Y2.5538 
G01 X-11.4831 Y2.5270 
G01 X-11.5074 Y2.4979 
G01 X-11.5317 Y2.4783 
G01 X-11.5538 Y2.4563 
G01 X-11.5853 Y2.4352 
G01 X-11.6148 Y2.4114 
G01 X-11.6425 Y2.3970 
G01 X-11.6684 Y2.3797 
G01 X-11.7034 Y2.3652 
G01 X-11.7371 Y2.3476 
G01 X-11.7670 Y2.3388 
G01 X-11.7958 Y2.3269 
G01 X-11.8330 Y2.3195 
G01 X-11.8694 Y2.3088 
G01 X-11.9005 Y2.3061 
G01 X-11.9311 Y2.3000 
G01 X-11.9690 Y2.3000 
G01 X-12.0067 Y2.2966 
G01 X-12.0378 Y2.3000 
G01 X-17.0689 Y2.3000 
G01 X-17.2042 Y2.3269 
G01 X-17.3316 Y2.3797 
G01 X-17.4462 Y2.4563 
G01 X-17.5437 Y2.5538 
G01 X-19.5437 Y4.5538 
G01 X-19.6203 Y4.6684 
G01 X-19.6731 Y4.7958 
G01 X-19.7000 Y4.9311 
G01 X-19.7000 Y14.0689 
G01 X-19.6731 Y14.2042 
G01 X-19.6203 Y14.3316 
G01 X-19.5437 Y14.4462 
G01 X-19.4462 Y14.5437 
G01 X-17.4462 Y16.5437 
G01 X-17.3316 Y16.6203 
G01 X-17.2042 Y16.6731 
G01 X-17.0689 Y16.7000 
G01 X-14.0007 Y16.7000 
G01 X-13.9318 Y16.7001 
G01 X-13.8637 Y16.6866 
G01 X-13.7965 Y16.6733 
G01 X-13.7328 Y16.6470 
G01 X-13.6691 Y16.6207 
G01 X-13.6125 Y16.5829 
G01 X-10.7881 Y14.7000 
G01 X-7.3746 Y14.7000 
G01 X-5.7000 Y17.2119 
G01 X-5.7000 Y22.3146 
G01 X-5.7721 Y22.3082 
G01 X-5.8480 Y22.2982 
G01 X-5.8830 Y22.2982 
G01 X-5.9178 Y22.2951 
G01 X-5.9943 Y22.2983 
G01 X-7.2670 Y22.2990 
G01 X-7.0696 Y21.6473 
G01 X-6.9574 Y21.6250 
G01 X-6.7823 Y21.5525 
G01 X-6.6248 Y21.4472 
G01 X-6.4908 Y21.3132 
G01 X-6.3855 Y21.1557 
G01 X-6.3130 Y20.9806 
G01 X-6.2760 Y20.7947 
G01 X-6.2760 Y20.6053 
G01 X-6.3130 Y20.4194 
G01 X-6.3855 Y20.2443 
G01 X-6.4908 Y20.0868 
G01 X-6.6248 Y19.9528 
G01 X-6.7823 Y19.8475 
G01 X-6.9574 Y19.7750 
G01 X-7.1433 Y19.7380 
G01 X-7.3425 Y19.7380 
G01 X-7.4093 Y19.6915 
G01 X-7.5743 Y19.6115 
G01 X-7.7498 Y19.5583 
G01 X-7.9315 Y19.5332 
G01 X-8.1149 Y19.5369 
G01 X-8.2954 Y19.5692 
G01 X-8.4687 Y19.6293 
G01 X-8.6304 Y19.7158 
G01 X-8.6597 Y19.7380 
G01 X-8.8567 Y19.7380 
G01 X-9.0426 Y19.7750 
G01 X-9.2177 Y19.8475 
G01 X-9.3752 Y19.9528 
G01 X-9.5092 Y20.0868 
G01 X-9.6145 Y20.2443 
G01 X-9.6870 Y20.4194 
G01 X-9.7240 Y20.6053 
G01 X-9.7240 Y20.7947 
G01 X-9.6870 Y20.9806 
G01 X-9.6145 Y21.1557 
G01 X-9.5092 Y21.3132 
G01 X-9.4280 Y21.3945 
G01 X-9.7547 Y22.4727 
G01 X-9.9473 Y22.5840 
G01 X-10.1240 Y22.7198 
G01 X-10.2815 Y22.8774 
G01 X-10.3410 Y22.9550 
G01 X-10.3806 Y22.9679 
G01 X-10.5489 Y23.0537 
G01 X-10.7017 Y23.1647 
G01 X-10.8353 Y23.2982 
G01 X-10.9463 Y23.4511 
G01 X-11.0321 Y23.6194 
G01 X-11.0905 Y23.7990 
G01 X-11.1200 Y23.9856 
G01 X-11.1200 Y24.2644 
G01 X-11.0905 Y24.4510 
G01 X-11.0321 Y24.6306 
G01 X-10.9463 Y24.7989 
G01 X-10.8353 Y24.9517 
G01 X-10.7017 Y25.0853 
G01 X-10.5489 Y25.1963 
G01 X-10.3806 Y25.2821 
G01 X-10.2010 Y25.3405 
G01 X-10.0144 Y25.3700 
G01 X-10.0071 Y25.3700 
G01 X-9.9457 Y25.4171 
G01 X-9.7526 Y25.5284 
G01 X-9.5467 Y25.6135 
G01 X-9.3314 Y25.6711 
G01 X-9.1105 Y25.7001 
G01 X-7.5892 Y25.6992 
G01 X-7.0589 Y38.4520 
G01 X-7.0207 Y38.6715 
G01 X-6.9541 Y38.8842 
G01 X-6.8603 Y39.0863 
G01 X-6.7410 Y39.2745 
G01 X-6.5981 Y39.4455 
G01 X-6.4341 Y39.5964 
G01 X-6.2518 Y39.7246 
G01 X-6.0544 Y39.8279 
G01 X-5.8451 Y39.9046 
G01 X-5.6277 Y39.9533 
G01 X-5.4057 Y39.9732 
G01 X-5.4000 Y39.9729 
G01 X-5.4000 Y53.4336 
G01 X-5.3843 Y53.5125 
G01 X-6.6340 Y55.5059 
G01 X-6.9813 Y55.8150 
G01 X-11.5175 Y55.8150 
G01 X-14.7652 Y54.9903 
G01 X-14.9536 Y53.6677 
G01 X-14.6964 Y53.4106 
G01 X-14.6964 Y52.5294 
G01 X-15.3194 Y51.9064 
G01 X-16.2006 Y51.9064 
G01 X-16.8236 Y52.5294 
G01 X-16.8236 Y53.4106 
G01 X-16.3347 Y53.8995 
G01 X-16.1339 Y55.3091 
G01 X-18.9681 Y58.1881 
G01 X-19.0113 Y58.2298 
G01 X-19.0164 Y58.2372 
G01 X-19.0227 Y58.2435 
G01 X-19.0556 Y58.2937 
G01 X-19.0899 Y58.3431 
G01 X-19.0935 Y58.3513 
G01 X-19.0984 Y58.3587 
G01 X-19.1209 Y58.4145 
G01 X-19.1449 Y58.4696 
G01 X-19.1468 Y58.4783 
G01 X-19.1501 Y58.4865 
G01 X-19.1614 Y58.5456 
G01 X-19.6876 Y60.9693 
G01 X-19.6923 Y60.9811 
G01 X-19.7022 Y61.0366 
G01 X-19.7141 Y61.0916 
G01 X-19.7144 Y61.1043 
G01 X-19.7166 Y61.1169 
G01 X-19.7156 Y61.1731 
G01 X-19.7166 Y61.2294 
G01 X-19.7143 Y61.2420 
G01 X-19.7000 Y62.0066 
G01 X-19.7000 Y68.0004 
G01 X-19.7001 Y68.0682 
G01 X-19.6864 Y68.1374 
G01 X-19.6733 Y68.2035 
G01 X-19.6466 Y68.2682 
G01 X-19.6207 Y68.3309 
G01 X-19.5823 Y68.3885 
G01 X-17.6205 Y71.3312 
G01 X-17.5834 Y71.3869 
G01 X-17.5442 Y71.4457 
G01 X-17.4962 Y71.4938 
G01 X-17.4468 Y71.5433 
G01 X-17.3901 Y71.5812 
G01 X-17.3322 Y71.6200 
G01 X-17.2677 Y71.6468 
G01 X-17.2049 Y71.6729 
G01 X-17.1362 Y71.6866 
G01 X-17.0697 Y71.6999 
G01 X-17.0007 Y71.7000 
G01 X-16.9318 Y71.7001 
G01 X-11.8639 Y71.7000 
G01 X-12.0840 Y72.7381 
G01 X-12.1324 Y72.8106 
G01 X-12.1896 Y72.9487 
G01 X-12.2188 Y73.0953 
G01 X-12.2188 Y73.2447 
G01 X-12.1896 Y73.3913 
G01 X-12.1324 Y73.5294 
G01 X-12.0494 Y73.6537 
G01 X-11.9437 Y73.7594 
G01 X-11.8194 Y73.8424 
G01 X-11.6813 Y73.8996 
G01 X-11.5347 Y73.9288 
G01 X-11.3853 Y73.9288 
G01 X-11.2387 Y73.8996 
G01 X-11.1006 Y73.8424 
G01 X-10.9763 Y73.7594 
G01 X-10.8706 Y73.6537 
G01 X-10.7876 Y73.5294 
G01 X-10.7304 Y73.3913 
G01 X-10.7012 Y73.2447 
G01 X-10.7012 Y73.0953 
G01 X-10.7145 Y73.0286 
G01 X-10.5827 Y72.4072 
G01 X-10.5398 Y72.4501 
G01 X-10.5367 Y72.4546 
G01 X-10.4911 Y72.4989 
G01 X-10.4462 Y72.5437 
G01 X-10.4416 Y72.5468 
G01 X-7.7654 Y75.1409 
G01 X-7.7654 Y75.3564 
G01 X-7.2614 Y75.8604 
G01 X-6.5486 Y75.8604 
G01 X-6.0446 Y75.3564 
G01 X-6.0446 Y74.6436 
G01 X-6.5486 Y74.1396 
G01 X-6.7869 Y74.1396 
G01 X-9.5090 Y71.5011 
G01 X-10.4563 Y70.5538 
G01 X-10.5019 Y70.5082 
G01 X-10.5470 Y70.4619 
G01 X-10.5507 Y70.4594 
G01 X-10.5538 Y70.4563 
G01 X-10.6074 Y70.4205 
G01 X-10.6607 Y70.3839 
G01 X-10.6647 Y70.3821 
G01 X-10.6684 Y70.3797 
G01 X-10.7280 Y70.3550 
G01 X-10.7874 Y70.3295 
G01 X-10.7917 Y70.3286 
G01 X-10.7958 Y70.3269 
G01 X-10.8591 Y70.3143 
G01 X-10.9223 Y70.3009 
G01 X-10.9267 Y70.3009 
G01 X-10.9311 Y70.3000 
G01 X-10.9956 Y70.3000 
G01 X-11.0602 Y70.2992 
G01 X-11.0645 Y70.3000 
G01 X-16.6254 Y70.3000 
G01 X-18.3000 Y67.7881 
G01 X-18.3000 Y62.0623 
G01 X-18.2988 Y62.0559 
G01 X-18.3000 Y61.9935 
G01 X-18.3000 Y61.9311 
G01 X-18.3013 Y61.9246 
G01 X-18.3141 Y61.2414 
G01 X-17.8344 Y59.0321 
G01 X-15.1750 Y56.3307 
G01 X-11.8262 Y57.1810 
G01 X-11.8092 Y57.1881 
G01 X-11.7595 Y57.1980 
G01 X-11.7105 Y57.2104 
G01 X-11.6920 Y57.2114 
G01 X-11.6739 Y57.2150 
G01 X-11.6233 Y57.2150 
G01 X-11.5728 Y57.2176 
G01 X-11.5545 Y57.2150 
G01 X-6.7354 Y57.2150 
G01 X-6.6869 Y57.2178 
G01 X-6.6666 Y57.2150 
G01 X-6.6461 Y57.2150 
G01 X-6.5985 Y57.2055 
G01 X-6.5503 Y57.1988 
G01 X-6.5310 Y57.1921 
G01 X-6.5108 Y57.1881 
G01 X-6.4660 Y57.1695 
G01 X-6.4201 Y57.1536 
G01 X-6.4024 Y57.1432 
G01 X-6.3834 Y57.1353 
G01 X-6.3431 Y57.1084 
G01 X-6.3012 Y57.0838 
G01 X-6.2858 Y57.0701 
G01 X-6.2688 Y57.0587 
G01 X-6.2345 Y57.0244 
G01 X-5.7952 Y56.6335 
G01 X-4.4613 Y56.4855 
G01 X-4.3564 Y56.5904 
G01 X-3.6436 Y56.5904 
G01 X-3.1396 Y56.0864 
G01 X-3.1396 Y55.3736 
G01 X-3.6436 Y54.8696 
G01 X-4.3564 Y54.8696 
G01 X-4.5765 Y55.0897 
G01 X-4.7315 Y55.1069 
G01 X-4.1998 Y54.2588 
G01 X-4.1729 Y54.2535 
G01 X-4.0000 Y54.1819 
G01 X-3.8444 Y54.0779 
G01 X-3.7121 Y53.9456 
G01 X-3.6081 Y53.7900 
G01 X-3.5365 Y53.6171 
G01 X-3.5000 Y53.4336 
G01 X-3.5000 Y39.0401 
G01 X-3.4955 Y38.9868 
G01 X-3.5000 Y38.9467 
G01 X-3.5000 Y38.9064 
G01 X-3.5104 Y38.8540 
G01 X-3.5164 Y38.8008 
G01 X-3.5286 Y38.7624 
G01 X-3.5365 Y38.7229 
G01 X-3.5570 Y38.6735 
G01 X-3.5732 Y38.6225 
G01 X-3.5927 Y38.5873 
G01 X-3.6081 Y38.5500 
G01 X-3.6378 Y38.5055 
G01 X-3.6637 Y38.4587 
G01 X-3.6740 Y38.4465 
G01 X-3.6618 Y38.3107 
G01 X-4.2585 Y23.9625 
G01 X-4.2586 Y23.8859 
G01 X-4.2631 Y23.8512 
G01 X-4.2646 Y23.8163 
G01 X-4.2777 Y23.7409 
G01 X-4.2878 Y23.6650 
G01 X-4.2968 Y23.6312 
G01 X-4.3028 Y23.5968 
G01 X-4.3257 Y23.5237 
G01 X-4.3456 Y23.4497 
G01 X-4.3590 Y23.4175 
G01 X-4.3694 Y23.3841 
G01 X-4.3880 Y23.3440 
G01 X-4.3797 Y23.3316 
G01 X-4.3731 Y23.3157 
G01 X-4.3643 Y23.3010 
G01 X-4.3468 Y23.2522 
G01 X-4.3269 Y23.2042 
G01 X-4.3236 Y23.1874 
G01 X-4.3178 Y23.1712 
G01 X-4.3101 Y23.1199 
G01 X-4.3000 Y23.0689 
G01 X-4.3000 Y23.0518 
G01 X-4.2975 Y23.0348 
G01 X-4.3000 Y22.9830 
G01 X-4.3000 Y17.0008 
G01 X-4.2999 Y16.9318 
G01 X-4.3134 Y16.8638 
G01 X-4.3267 Y16.7965 
G01 X-4.3530 Y16.7329 
G01 X-4.3793 Y16.6691 
G01 X-4.4170 Y16.6126 
G01 X-6.3795 Y13.6688 
G01 X-6.4166 Y13.6131 
G01 X-6.4558 Y13.5543 
G01 X-6.5038 Y13.5063 
G01 X-6.5532 Y13.4567 
G01 X-6.6099 Y13.4188 
G01 X-6.6678 Y13.3800 
G01 X-6.7323 Y13.3532 
G01 X-6.7951 Y13.3271 
G01 X-6.8637 Y13.3134 
G01 X-6.9303 Y13.3001 
G01 X-6.9993 Y13.3000 
G01 X-7.0682 Y13.2999 
G01 X-10.9992 Y13.3000 
G01 X-11.0682 Y13.2999 
G01 X-11.1362 Y13.3134 
G01 X-11.2035 Y13.3267 
G01 X-11.2671 Y13.3530 
G01 X-11.3309 Y13.3793 
G01 X-11.3875 Y13.4170 
G01 X-14.2119 Y15.3000 
G01 X-16.7101 Y15.3000 
G01 X-18.3000 Y13.7101 
G01 X-18.3000 Y5.2899 
G01 X-16.7101 Y3.7000 
G01 X-15.7000 Y3.7000 
G01 X-15.7000 Y4.2780 
G01 X-15.8567 Y4.2780 
G01 X-16.0426 Y4.3150 
G01 X-16.2177 Y4.3875 
G01 X-16.3752 Y4.4928 
G01 X-16.5092 Y4.6268 
G01 X-16.6145 Y4.7843 
G01 X-16.6870 Y4.9594 
G01 X-16.7240 Y5.1452 
G01 X-16.7240 Y5.3347 
G01 X-16.6870 Y5.5206 
G01 X-16.6145 Y5.6957 
G01 X-16.5092 Y5.8532 
G01 X-16.3752 Y5.9872 
G01 X-16.2177 Y6.0925 
G01 X-16.0426 Y6.1650 
G01 X-15.8567 Y6.2020 
G01 X-14.1433 Y6.2020 
G01 X-13.9574 Y6.1650 
G01 X-13.7823 Y6.0925 
G01 X-13.6248 Y5.9872 
G01 X-13.4908 Y5.8532 
G01 X-13.3855 Y5.6957 
G01 X-13.3130 Y5.5206 
G01 X-13.2760 Y5.3347 
G01 X-13.2760 Y5.1452 
G01 X-13.3130 Y4.9594 
G01 X-13.3855 Y4.7843 
G01 X-13.4908 Y4.6268 
G01 X-13.6248 Y4.4928 
G01 X-13.7823 Y4.3875 
G01 X-13.9574 Y4.3150 
G01 X-14.1433 Y4.2780 
G00 Z2.5400 
G00 X-14.1433 Y6.8180 
G01 Z-0.2000 F254.00 
G01 X-15.8567 Y6.8180 F508.00 
G01 X-16.0426 Y6.8550 
G01 X-16.2177 Y6.9275 
G01 X-16.3752 Y7.0328 
G01 X-16.5092 Y7.1668 
G01 X-16.6145 Y7.3243 
G01 X-16.6870 Y7.4994 
G01 X-16.7240 Y7.6853 
G01 X-16.7240 Y7.8747 
G01 X-16.6870 Y8.0606 
G01 X-16.6145 Y8.2357 
G01 X-16.5092 Y8.3932 
G01 X-16.3752 Y8.5272 
G01 X-16.2177 Y8.6325 
G01 X-16.0426 Y8.7050 
G01 X-15.8567 Y8.7420 
G01 X-14.4010 Y8.7420 
G01 X-9.7188 Y10.4410 
G01 X-9.6870 Y10.6006 
G01 X-9.6145 Y10.7757 
G01 X-9.5092 Y10.9332 
G01 X-9.3752 Y11.0672 
G01 X-9.2177 Y11.1725 
G01 X-9.0426 Y11.2450 
G01 X-8.8567 Y11.2820 
G01 X-7.1604 Y11.2820 
G01 X-2.6981 Y12.5314 
G01 X-2.6718 Y19.9407 
G01 X-2.6718 Y59.8900 
G01 X-3.9360 Y59.8900 
G01 X-3.5821 Y59.0689 
G01 X-3.1396 Y58.6264 
G01 X-3.1396 Y57.9136 
G01 X-3.6436 Y57.4096 
G01 X-4.3564 Y57.4096 
G01 X-4.8604 Y57.9136 
G01 X-4.8604 Y58.4977 
G01 X-5.4605 Y59.8900 
G01 X-7.3358 Y59.8900 
G01 X-7.6994 Y59.5264 
G01 X-8.5806 Y59.5264 
G01 X-9.2036 Y60.1494 
G01 X-9.2036 Y61.0306 
G01 X-8.5806 Y61.6536 
G01 X-7.6994 Y61.6536 
G01 X-7.3358 Y61.2900 
G01 X-5.0050 Y61.2900 
G01 X-4.9411 Y61.2909 
G01 X-4.9361 Y61.2900 
G01 X-2.7952 Y61.2900 
G01 X-3.5663 Y66.0177 
G01 X-3.8812 Y66.3326 
G01 X-3.8812 Y67.0874 
G01 X-3.3474 Y67.6212 
G01 X-2.5926 Y67.6212 
G01 X-2.0588 Y67.0874 
G01 X-2.0588 Y66.3326 
G01 X-2.1795 Y66.2119 
G01 X-1.2829 Y60.7147 
G01 X-1.2718 Y60.6589 
G01 X-1.2718 Y60.6467 
G01 X-1.2698 Y60.6346 
G01 X-1.2718 Y60.5779 
G01 X-1.2718 Y20.0077 
G01 X-1.2718 Y19.9390 
G01 X-1.2718 Y19.8711 
G01 X-1.2999 Y12.0256 
G01 X-1.2968 Y11.9849 
G01 X-1.3002 Y11.9568 
G01 X-1.3003 Y11.9286 
G01 X-1.3084 Y11.8885 
G01 X-1.3132 Y11.8480 
G01 X-1.3220 Y11.8211 
G01 X-1.3276 Y11.7934 
G01 X-1.3434 Y11.7557 
G01 X-1.3561 Y11.7169 
G01 X-1.3699 Y11.6923 
G01 X-1.3809 Y11.6662 
G01 X-1.4037 Y11.6323 
G01 X-1.4237 Y11.5967 
G01 X-1.4421 Y11.5753 
G01 X-1.4579 Y11.5518 
G01 X-1.4868 Y11.5231 
G01 X-1.5134 Y11.4920 
G01 X-1.5357 Y11.4746 
G01 X-1.5557 Y11.4547 
G01 X-1.5897 Y11.4321 
G01 X-1.6219 Y11.4069 
G01 X-1.6471 Y11.3941 
G01 X-1.6706 Y11.3785 
G01 X-1.7084 Y11.3630 
G01 X-1.7449 Y11.3445 
G01 X-1.7721 Y11.3369 
G01 X-1.7982 Y11.3262 
G01 X-1.8383 Y11.3183 
G01 X-6.3075 Y10.0670 
G01 X-6.3130 Y10.0394 
G01 X-6.3855 Y9.8643 
G01 X-6.4908 Y9.7068 
G01 X-6.6248 Y9.5728 
G01 X-6.7823 Y9.4675 
G01 X-6.9574 Y9.3950 
G01 X-7.1433 Y9.3580 
G01 X-8.5990 Y9.3580 
G01 X-13.2812 Y7.6590 
G01 X-13.3130 Y7.4994 
G01 X-13.3855 Y7.3243 
G01 X-13.4908 Y7.1668 
G01 X-13.6248 Y7.0328 
G01 X-13.7823 Y6.9275 
G01 X-13.9574 Y6.8550 
G01 X-14.1433 Y6.8180 
G00 Z2.5400 
G00 X-14.1433 Y9.3580 
G01 Z-0.2000 F254.00 
G01 X-15.8567 Y9.3580 F508.00 
G01 X-16.0426 Y9.3950 
G01 X-16.2177 Y9.4675 
G01 X-16.3752 Y9.5728 
G01 X-16.5092 Y9.7068 
G01 X-16.6145 Y9.8643 
G01 X-16.6870 Y10.0394 
G01 X-16.7240 Y10.2253 
G01 X-16.7240 Y10.4147 
G01 X-16.6870 Y10.6006 
G01 X-16.6145 Y10.7757 
G01 X-16.5092 Y10.9332 
G01 X-16.3752 Y11.0672 
G01 X-16.2177 Y11.1725 
G01 X-16.0426 Y11.2450 
G01 X-15.8567 Y11.2820 
G01 X-14.1433 Y11.2820 
G01 X-13.9574 Y11.2450 
G01 X-13.7823 Y11.1725 
G01 X-13.6248 Y11.0672 
G01 X-13.4908 Y10.9332 
G01 X-13.3855 Y10.7757 
G01 X-13.3130 Y10.6006 
G01 X-13.2760 Y10.4147 
G01 X-13.2760 Y10.2253 
G01 X-13.3130 Y10.0394 
G01 X-13.3855 Y9.8643 
G01 X-13.4908 Y9.7068 
G01 X-13.6248 Y9.5728 
G01 X-13.7823 Y9.4675 
G01 X-13.9574 Y9.3950 
G01 X-14.1433 Y9.3580 
G00 Z2.5400 
G00 X-14.1433 Y11.8980 
G01 Z-0.2000 F254.00 
G01 X-15.8567 Y11.8980 F508.00 
G01 X-16.0426 Y11.9350 
G01 X-16.2177 Y12.0075 
G01 X-16.3752 Y12.1128 
G01 X-16.5092 Y12.2468 
G01 X-16.6145 Y12.4043 
G01 X-16.6870 Y12.5794 
G01 X-16.7240 Y12.7652 
G01 X-16.7240 Y12.9547 
G01 X-16.6870 Y13.1406 
G01 X-16.6145 Y13.3157 
G01 X-16.5092 Y13.4732 
G01 X-16.3752 Y13.6072 
G01 X-16.2177 Y13.7125 
G01 X-16.0426 Y13.7850 
G01 X-15.8567 Y13.8220 
G01 X-14.1433 Y13.8220 
G01 X-13.9574 Y13.7850 
G01 X-13.7823 Y13.7125 
G01 X-13.6248 Y13.6072 
G01 X-13.4908 Y13.4732 
G01 X-13.3855 Y13.3157 
G01 X-13.3130 Y13.1406 
G01 X-13.2760 Y12.9547 
G01 X-13.2760 Y12.7652 
G01 X-13.3130 Y12.5794 
G01 X-13.3855 Y12.4043 
G01 X-13.4908 Y12.2468 
G01 X-13.6248 Y12.1128 
G01 X-13.7823 Y12.0075 
G01 X-13.9574 Y11.9350 
G01 X-14.1433 Y11.8980 
G00 Z2.5400 
G00 X-14.1465 Y11.6980 
G01 Z-0.2000 F254.00 
G01 X-15.8535 Y11.6980 F508.00 
G01 X-16.0341 Y11.7266 
G01 X-16.2081 Y11.7831 
G01 X-16.3710 Y11.8662 
G01 X-16.5190 Y11.9737 
G01 X-16.6483 Y12.1030 
G01 X-16.7558 Y12.2510 
G01 X-16.8389 Y12.4139 
G01 X-16.8954 Y12.5879 
G01 X-16.9240 Y12.7685 
G01 X-16.9240 Y12.9515 
G01 X-16.8954 Y13.1321 
G01 X-16.8389 Y13.3061 
G01 X-16.7558 Y13.4690 
G01 X-16.6483 Y13.6170 
G01 X-16.5190 Y13.7463 
G01 X-16.3710 Y13.8538 
G01 X-16.2081 Y13.9369 
G01 X-16.0341 Y13.9934 
G01 X-15.8535 Y14.0220 
G01 X-14.1465 Y14.0220 
G01 X-13.9659 Y13.9934 
G01 X-13.7919 Y13.9369 
G01 X-13.6290 Y13.8538 
G01 X-13.4810 Y13.7463 
G01 X-13.3517 Y13.6170 
G01 X-13.2442 Y13.4690 
G01 X-13.1611 Y13.3061 
G01 X-13.1046 Y13.1321 
G01 X-13.0760 Y12.9515 
G01 X-13.0760 Y12.7685 
G01 X-13.1046 Y12.5879 
G01 X-13.1611 Y12.4139 
G01 X-13.2442 Y12.2510 
G01 X-13.3517 Y12.1030 
G01 X-13.4810 Y11.9737 
G01 X-13.6290 Y11.8662 
G01 X-13.7919 Y11.7831 
G01 X-13.9659 Y11.7266 
G01 X-14.1465 Y11.6980 
G00 Z2.5400 
G00 X-14.1465 Y9.1580 
G01 Z-0.2000 F254.00 
G01 X-15.8535 Y9.1580 F508.00 
G01 X-16.0341 Y9.1866 
G01 X-16.2081 Y9.2431 
G01 X-16.3710 Y9.3262 
G01 X-16.5190 Y9.4337 
G01 X-16.6483 Y9.5630 
G01 X-16.7558 Y9.7110 
G01 X-16.8389 Y9.8739 
G01 X-16.8954 Y10.0479 
G01 X-16.9240 Y10.2285 
G01 X-16.9240 Y10.4115 
G01 X-16.8954 Y10.5921 
G01 X-16.8389 Y10.7661 
G01 X-16.7558 Y10.9290 
G01 X-16.6483 Y11.0770 
G01 X-16.5190 Y11.2063 
G01 X-16.3710 Y11.3138 
G01 X-16.2081 Y11.3969 
G01 X-16.0341 Y11.4534 
G01 X-15.8535 Y11.4820 
G01 X-14.1465 Y11.4820 
G01 X-13.9659 Y11.4534 
G01 X-13.7919 Y11.3969 
G01 X-13.6290 Y11.3138 
G01 X-13.4810 Y11.2063 
G01 X-13.3517 Y11.0770 
G01 X-13.2442 Y10.9290 
G01 X-13.1611 Y10.7661 
G01 X-13.1046 Y10.5921 
G01 X-13.0760 Y10.4115 
G01 X-13.0760 Y10.2285 
G01 X-13.1046 Y10.0479 
G01 X-13.1611 Y9.8739 
G01 X-13.2442 Y9.7110 
G01 X-13.3517 Y9.5630 
G01 X-13.4810 Y9.4337 
G01 X-13.6290 Y9.3262 
G01 X-13.7919 Y9.2431 
G01 X-13.9659 Y9.1866 
G01 X-14.1465 Y9.1580 
G00 Z2.5400 
G00 X-5.0604 Y57.8308 
G01 Z-0.2000 F254.00 
G01 X-5.0604 Y58.4564 F508.00 
G01 X-5.5921 Y59.6900 
G01 X-7.2530 Y59.6900 
G01 X-7.6166 Y59.3264 
G01 X-8.6634 Y59.3264 
G01 X-9.4036 Y60.0666 
G01 X-9.4036 Y61.1134 
G01 X-8.6634 Y61.8536 
G01 X-7.6166 Y61.8536 
G01 X-7.2530 Y61.4900 
G01 X-5.0064 Y61.4900 
G01 X-4.9242 Y61.4912 
G01 X-4.9178 Y61.4900 
G01 X-3.0305 Y61.4900 
G01 X-3.7533 Y65.9219 
G01 X-4.0812 Y66.2497 
G01 X-4.0812 Y67.1703 
G01 X-3.4303 Y67.8212 
G01 X-2.5097 Y67.8212 
G01 X-1.8588 Y67.1703 
G01 X-1.8588 Y66.2497 
G01 X-1.9656 Y66.1429 
G01 X-1.0861 Y60.7503 
G01 X-1.0718 Y60.6786 
G01 X-1.0718 Y60.6629 
G01 X-1.0693 Y60.6474 
G01 X-1.0718 Y60.5744 
G01 X-1.0718 Y20.0270 
G01 X-1.0718 Y19.9386 
G01 X-1.0718 Y19.8514 
G01 X-1.0999 Y12.0329 
G01 X-1.0959 Y11.9805 
G01 X-1.1002 Y11.9445 
G01 X-1.1003 Y11.9082 
G01 X-1.1107 Y11.8567 
G01 X-1.1170 Y11.8045 
G01 X-1.1283 Y11.7700 
G01 X-1.1355 Y11.7344 
G01 X-1.1558 Y11.6860 
G01 X-1.1721 Y11.6360 
G01 X-1.1899 Y11.6044 
G01 X-1.2040 Y11.5709 
G01 X-1.2333 Y11.5273 
G01 X-1.2590 Y11.4815 
G01 X-1.2827 Y11.4539 
G01 X-1.3030 Y11.4238 
G01 X-1.3402 Y11.3868 
G01 X-1.3744 Y11.3469 
G01 X-1.4030 Y11.3245 
G01 X-1.4288 Y11.2989 
G01 X-1.4726 Y11.2699 
G01 X-1.5139 Y11.2374 
G01 X-1.5463 Y11.2210 
G01 X-1.5765 Y11.2009 
G01 X-1.6251 Y11.1810 
G01 X-1.6720 Y11.1572 
G01 X-1.7070 Y11.1474 
G01 X-1.7406 Y11.1337 
G01 X-1.7921 Y11.1236 
G01 X-6.1517 Y9.9029 
G01 X-6.1611 Y9.8739 
G01 X-6.2442 Y9.7110 
G01 X-6.3517 Y9.5630 
G01 X-6.4810 Y9.4337 
G01 X-6.6290 Y9.3262 
G01 X-6.7919 Y9.2431 
G01 X-6.9659 Y9.1866 
G01 X-7.1465 Y9.1580 
G01 X-8.5638 Y9.1580 
G01 X-13.1042 Y7.5105 
G01 X-13.1046 Y7.5079 
G01 X-13.1611 Y7.3339 
G01 X-13.2442 Y7.1710 
G01 X-13.3517 Y7.0230 
G01 X-13.4810 Y6.8937 
G01 X-13.6290 Y6.7862 
G01 X-13.7919 Y6.7031 
G01 X-13.9659 Y6.6466 
G01 X-14.1465 Y6.6180 
G01 X-15.8535 Y6.6180 
G01 X-16.0341 Y6.6466 
G01 X-16.2081 Y6.7031 
G01 X-16.3710 Y6.7862 
G01 X-16.5190 Y6.8937 
G01 X-16.6483 Y7.0230 
G01 X-16.7558 Y7.1710 
G01 X-16.8389 Y7.3339 
G01 X-16.8954 Y7.5079 
G01 X-16.9240 Y7.6885 
G01 X-16.9240 Y7.8715 
G01 X-16.8954 Y8.0521 
G01 X-16.8389 Y8.2261 
G01 X-16.7558 Y8.3890 
G01 X-16.6483 Y8.5370 
G01 X-16.5190 Y8.6663 
G01 X-16.3710 Y8.7738 
G01 X-16.2081 Y8.8569 
G01 X-16.0341 Y8.9134 
G01 X-15.8535 Y8.9420 
G01 X-14.4362 Y8.9420 
G01 X-9.8958 Y10.5895 
G01 X-9.8954 Y10.5921 
G01 X-9.8389 Y10.7661 
G01 X-9.7558 Y10.9290 
G01 X-9.6483 Y11.0770 
G01 X-9.5190 Y11.2063 
G01 X-9.3710 Y11.3138 
G01 X-9.2081 Y11.3969 
G01 X-9.0341 Y11.4534 
G01 X-8.8535 Y11.4820 
G01 X-7.1879 Y11.4820 
G01 X-2.8976 Y12.6833 
G01 X-2.8718 Y19.9409 
G01 X-2.8718 Y59.6900 
G01 X-3.6320 Y59.6900 
G01 X-3.4136 Y59.1832 
G01 X-2.9396 Y58.7092 
G01 X-2.9396 Y57.8308 
G01 X-3.5608 Y57.2096 
G01 X-4.4392 Y57.2096 
G01 X-5.0604 Y57.8308 
G00 Z2.5400 
G00 X-12.4188 Y78.0756 
G01 Z-0.2000 F254.00 
G01 X-12.4188 Y78.2644 F508.00 
G01 X-12.3819 Y78.4497 
G01 X-12.3097 Y78.6242 
G01 X-12.2047 Y78.7812 
G01 X-12.0712 Y78.9147 
G01 X-11.9142 Y79.0197 
G01 X-11.7397 Y79.0919 
G01 X-11.6161 Y79.1165 
G01 X-10.4730 Y79.7664 
G01 X-10.4263 Y79.7976 
G01 X-10.3961 Y79.8101 
G01 X-10.3677 Y79.8262 
G01 X-10.3144 Y79.8439 
G01 X-10.2625 Y79.8654 
G01 X-10.2305 Y79.8718 
G01 X-10.1995 Y79.8821 
G01 X-10.1437 Y79.8890 
G01 X-10.0886 Y79.9000 
G01 X-10.0560 Y79.9000 
G01 X-10.0236 Y79.9040 
G01 X-9.9675 Y79.9000 
G01 X-4.9114 Y79.9000 
G01 X-4.7375 Y79.8654 
G01 X-4.5737 Y79.7976 
G01 X-4.4263 Y79.6991 
G01 X-4.3009 Y79.5737 
G01 X-2.4263 Y77.6991 
G01 X-2.3009 Y77.5737 
G01 X-2.2024 Y77.4263 
G01 X-2.1346 Y77.2625 
G01 X-2.1000 Y77.0886 
G01 X-2.1000 Y76.2728 
G01 X-2.0975 Y76.2571 
G01 X-2.1000 Y76.1843 
G01 X-2.1000 Y73.7328 
G01 X-2.0975 Y73.7171 
G01 X-2.1000 Y73.6443 
G01 X-2.1000 Y71.9114 
G01 X-2.1346 Y71.7375 
G01 X-2.2024 Y71.5737 
G01 X-2.3009 Y71.4263 
G01 X-2.4263 Y71.3009 
G01 X-7.3485 Y66.3787 
G01 X-7.3938 Y66.3289 
G01 X-7.4111 Y66.3161 
G01 X-7.4263 Y66.3009 
G01 X-7.4822 Y66.2636 
G01 X-7.5364 Y66.2235 
G01 X-7.5558 Y66.2144 
G01 X-7.5737 Y66.2024 
G01 X-7.6358 Y66.1767 
G01 X-7.6967 Y66.1480 
G01 X-7.7176 Y66.1428 
G01 X-7.7375 Y66.1346 
G01 X-7.8034 Y66.1215 
G01 X-14.9272 Y64.3496 
G01 X-14.8760 Y61.4930 
G01 X-14.4964 Y61.1134 
G01 X-14.4964 Y60.0666 
G01 X-15.2366 Y59.3264 
G01 X-16.2834 Y59.3264 
G01 X-17.0236 Y60.0666 
G01 X-17.0236 Y61.1134 
G01 X-16.6757 Y61.4613 
G01 X-16.7391 Y64.9995 
G01 X-16.7442 Y65.0534 
G01 X-16.7420 Y65.0746 
G01 X-16.7430 Y65.0959 
G01 X-16.7410 Y65.1091 
G01 X-16.7413 Y65.1225 
G01 X-16.7316 Y65.1759 
G01 X-16.6366 Y66.1051 
G01 X-16.7812 Y66.2497 
G01 X-16.7812 Y67.1703 
G01 X-16.1303 Y67.8212 
G01 X-15.2097 Y67.8212 
G01 X-14.5588 Y67.1703 
G01 X-14.5588 Y66.2960 
G01 X-8.4597 Y67.8131 
G01 X-3.9000 Y72.3728 
G01 X-3.9000 Y72.7910 
G01 X-4.4212 Y72.8092 
G01 X-4.5608 Y72.6696 
G01 X-5.4392 Y72.6696 
G01 X-6.0604 Y73.2908 
G01 X-6.0604 Y74.1692 
G01 X-5.4392 Y74.7904 
G01 X-4.5608 Y74.7904 
G01 X-4.3792 Y74.6088 
G01 X-3.9000 Y74.5920 
G01 X-3.9000 Y75.3310 
G01 X-4.4212 Y75.3492 
G01 X-4.5608 Y75.2096 
G01 X-5.4392 Y75.2096 
G01 X-6.0604 Y75.8308 
G01 X-6.0604 Y76.7092 
G01 X-5.4392 Y77.3304 
G01 X-4.6032 Y77.3304 
G01 X-5.3728 Y78.1000 
G01 X-9.7621 Y78.1000 
G01 X-10.7168 Y77.5572 
G01 X-10.8488 Y77.4253 
G01 X-11.0058 Y77.3203 
G01 X-11.1803 Y77.2480 
G01 X-11.3656 Y77.2112 
G01 X-11.5544 Y77.2112 
G01 X-11.7397 Y77.2480 
G01 X-11.9142 Y77.3203 
G01 X-12.0712 Y77.4253 
G01 X-12.2047 Y77.5588 
G01 X-12.3097 Y77.7158 
G01 X-12.3819 Y77.8903 
G01 X-12.4188 Y78.0756 
G00 Z2.5400 
G00 X-48.6771 Y48.4761 
G01 Z-0.2000 F254.00 
G01 X-49.1868 Y48.4761 F508.00 
G01 X-49.1531 Y48.4516 
G01 X-49.0622 Y48.3607 
G01 X-47.8097 Y48.3617 
G01 X-47.7355 Y48.3641 
G01 X-47.7211 Y48.3617 
G01 X-47.7065 Y48.3617 
G01 X-47.6338 Y48.3473 
G01 X-47.5606 Y48.3353 
G01 X-47.5469 Y48.3301 
G01 X-47.5326 Y48.3273 
G01 X-47.4641 Y48.2990 
G01 X-47.3947 Y48.2728 
G01 X-47.3823 Y48.2651 
G01 X-47.3688 Y48.2596 
G01 X-47.3071 Y48.2184 
G01 X-47.2441 Y48.1793 
G01 X-47.2334 Y48.1693 
G01 X-47.2213 Y48.1612 
G01 X-47.1688 Y48.1088 
G01 X-47.1147 Y48.0581 
G01 X-47.1062 Y48.0462 
G01 X-47.0958 Y48.0359 
G01 X-47.0546 Y47.9743 
G01 X-47.0114 Y47.9140 
G01 X-47.0054 Y47.9007 
G01 X-46.9972 Y47.8886 
G01 X-46.9688 Y47.8201 
G01 X-45.6227 Y44.8507 
G01 X-45.6144 Y44.8383 
G01 X-45.6001 Y44.8036 
G01 X-45.5818 Y44.7707 
G01 X-45.5707 Y44.7361 
G01 X-45.5557 Y44.7029 
G01 X-45.5523 Y44.6883 
G01 X-45.5466 Y44.6745 
G01 X-45.5393 Y44.6377 
G01 X-44.3431 Y40.9000 
G01 X-9.4817 Y40.9000 
G01 X-7.9000 Y43.2725 
G01 X-7.9000 Y49.6717 
G01 X-8.6387 Y51.7064 
G01 X-8.6634 Y51.7064 
G01 X-9.4036 Y52.4466 
G01 X-9.4036 Y53.4934 
G01 X-8.6634 Y54.2336 
G01 X-7.6166 Y54.2336 
G01 X-6.8764 Y53.4934 
G01 X-6.8764 Y52.4466 
G01 X-6.9616 Y52.3614 
G01 X-6.1608 Y50.1559 
G01 X-6.1346 Y50.0925 
G01 X-6.1307 Y50.0728 
G01 X-6.1238 Y50.0538 
G01 X-6.1134 Y49.9859 
G01 X-6.1000 Y49.9186 
G01 X-6.1000 Y49.8985 
G01 X-6.0970 Y49.8786 
G01 X-6.1000 Y49.8100 
G01 X-6.1000 Y43.0010 
G01 X-6.0999 Y42.9123 
G01 X-6.1170 Y42.8260 
G01 X-6.1343 Y42.7384 
G01 X-6.1680 Y42.6568 
G01 X-6.2020 Y42.5745 
G01 X-6.2508 Y42.5014 
G01 X-8.2023 Y39.5741 
G01 X-8.2512 Y39.5007 
G01 X-8.3003 Y39.4270 
G01 X-8.3630 Y39.3642 
G01 X-8.4256 Y39.3015 
G01 X-8.4985 Y39.2527 
G01 X-8.5729 Y39.2029 
G01 X-8.6538 Y39.1692 
G01 X-8.7366 Y39.1349 
G01 X-8.8239 Y39.1174 
G01 X-8.9104 Y39.1001 
G01 X-8.9991 Y39.1000 
G01 X-9.0877 Y39.0999 
G01 X-44.9489 Y39.1000 
G01 X-44.9862 Y39.0958 
G01 X-45.0374 Y39.1000 
G01 X-45.0886 Y39.1000 
G01 X-45.1255 Y39.1073 
G01 X-45.1629 Y39.1104 
G01 X-45.2122 Y39.1246 
G01 X-45.2625 Y39.1346 
G01 X-45.2972 Y39.1490 
G01 X-45.3333 Y39.1593 
G01 X-45.3789 Y39.1828 
G01 X-45.4263 Y39.2024 
G01 X-45.4575 Y39.2233 
G01 X-45.4909 Y39.2405 
G01 X-45.5311 Y39.2724 
G01 X-45.5737 Y39.3009 
G01 X-45.6003 Y39.3275 
G01 X-45.6297 Y39.3509 
G01 X-45.6628 Y39.3900 
G01 X-45.6991 Y39.4263 
G01 X-45.7199 Y39.4575 
G01 X-45.7442 Y39.4862 
G01 X-45.7691 Y39.5311 
G01 X-45.7976 Y39.5737 
G01 X-45.8119 Y39.6084 
G01 X-45.8302 Y39.6412 
G01 X-45.8458 Y39.6901 
G01 X-45.8654 Y39.7375 
G01 X-45.8727 Y39.7743 
G01 X-47.0689 Y43.5120 
G01 X-47.5672 Y43.5120 
G01 X-47.6346 Y43.4192 
G01 X-47.8043 Y43.2496 
G01 X-47.9983 Y43.1086 
G01 X-48.2121 Y42.9997 
G01 X-48.4402 Y42.9256 
G01 X-48.6771 Y42.8880 
G01 X-51.1649 Y42.8880 
G01 X-51.4018 Y42.9256 
G01 X-51.6299 Y42.9997 
G01 X-51.8437 Y43.1086 
G01 X-52.0377 Y43.2496 
G01 X-52.2074 Y43.4192 
G01 X-52.3483 Y43.6133 
G01 X-52.4572 Y43.8270 
G01 X-52.5314 Y44.0551 
G01 X-52.5689 Y44.2921 
G01 X-52.5689 Y44.5319 
G01 X-52.5314 Y44.7689 
G01 X-52.4572 Y44.9970 
G01 X-52.3483 Y45.2107 
G01 X-52.2074 Y45.4048 
G01 X-52.0377 Y45.5744 
G01 X-51.8437 Y45.7154 
G01 X-51.6299 Y45.8243 
G01 X-51.4018 Y45.8984 
G01 X-51.1649 Y45.9359 
G01 X-48.6771 Y45.9359 
G01 X-48.4402 Y45.8984 
G01 X-48.2121 Y45.8243 
G01 X-47.9983 Y45.7154 
G01 X-47.9874 Y45.7075 
G01 X-48.3745 Y46.5612 
G01 X-49.0608 Y46.5607 
G01 X-49.1531 Y46.4684 
G01 X-49.3187 Y46.3481 
G01 X-49.5010 Y46.2552 
G01 X-49.6956 Y46.1920 
G01 X-49.8977 Y46.1600 
G01 X-50.1023 Y46.1600 
G01 X-50.3044 Y46.1920 
G01 X-50.4990 Y46.2552 
G01 X-50.6813 Y46.3481 
G01 X-50.8469 Y46.4684 
G01 X-50.9916 Y46.6131 
G01 X-51.1119 Y46.7786 
G01 X-51.2048 Y46.9610 
G01 X-51.2680 Y47.1556 
G01 X-51.3000 Y47.3577 
G01 X-51.3000 Y47.5623 
G01 X-51.2680 Y47.7644 
G01 X-51.2048 Y47.9590 
G01 X-51.1119 Y48.1413 
G01 X-50.9916 Y48.3069 
G01 X-50.8469 Y48.4516 
G01 X-50.8132 Y48.4761 
G01 X-51.1649 Y48.4761 
G01 X-51.4018 Y48.5136 
G01 X-51.6299 Y48.5877 
G01 X-51.6541 Y48.6000 
G01 X-53.7130 Y48.6000 
G01 X-55.1000 Y47.2130 
G01 X-55.1000 Y39.4033 
G01 X-10.7802 Y20.0412 
G01 X-10.5670 Y19.9126 
G01 X-10.3723 Y19.7572 
G01 X-10.2641 Y19.6447 
G01 X-9.0861 Y19.5835 
G01 X-9.2081 Y19.6231 
G01 X-9.3710 Y19.7062 
G01 X-9.5190 Y19.8137 
G01 X-9.6483 Y19.9430 
G01 X-9.7558 Y20.0910 
G01 X-9.8389 Y20.2539 
G01 X-9.8954 Y20.4279 
G01 X-9.9240 Y20.6085 
G01 X-9.9240 Y20.7915 
G01 X-9.8954 Y20.9721 
G01 X-9.8389 Y21.1461 
G01 X-9.7558 Y21.3090 
G01 X-9.6537 Y21.4496 
G01 X-9.9232 Y22.3391 
G01 X-10.0587 Y22.4174 
G01 X-10.2563 Y22.5692 
G01 X-10.4323 Y22.7454 
G01 X-10.4629 Y22.7854 
G01 X-10.6538 Y22.8826 
G01 X-10.8320 Y23.0121 
G01 X-10.9879 Y23.1680 
G01 X-11.1174 Y23.3462 
G01 X-11.2174 Y23.5426 
G01 X-11.2855 Y23.7522 
G01 X-11.3200 Y23.9698 
G01 X-11.3200 Y24.2802 
G01 X-11.2855 Y24.4978 
G01 X-11.2174 Y24.7074 
G01 X-11.1174 Y24.9038 
G01 X-10.9879 Y25.0820 
G01 X-10.8320 Y25.2379 
G01 X-10.6538 Y25.3674 
G01 X-10.4574 Y25.4674 
G01 X-10.2478 Y25.5355 
G01 X-10.0866 Y25.5611 
G01 X-10.0570 Y25.5838 
G01 X-9.8412 Y25.7082 
G01 X-9.6110 Y25.8034 
G01 X-9.3704 Y25.8677 
G01 X-9.1235 Y25.9001 
G01 X-7.7811 Y25.8993 
G01 X-7.2582 Y38.4734 
G01 X-7.2154 Y38.7187 
G01 X-7.1410 Y38.9564 
G01 X-7.0362 Y39.1824 
G01 X-6.9029 Y39.3927 
G01 X-6.7432 Y39.5838 
G01 X-6.5599 Y39.7525 
G01 X-6.3562 Y39.8958 
G01 X-6.1355 Y40.0112 
G01 X-5.9016 Y40.0969 
G01 X-5.6586 Y40.1513 
G01 X-5.6000 Y40.1566 
G01 X-5.6000 Y53.4305 
G01 X-5.5937 Y53.4700 
G01 X-6.7882 Y55.3755 
G01 X-7.0574 Y55.6150 
G01 X-11.4925 Y55.6150 
G01 X-14.5861 Y54.8295 
G01 X-14.7415 Y53.7385 
G01 X-14.4964 Y53.4934 
G01 X-14.4964 Y52.4466 
G01 X-15.2366 Y51.7064 
G01 X-16.2834 Y51.7064 
G01 X-17.0236 Y52.4466 
G01 X-17.0236 Y53.4934 
G01 X-16.5233 Y53.9937 
G01 X-16.3458 Y55.2394 
G01 X-19.1088 Y58.0459 
G01 X-19.1644 Y58.0996 
G01 X-19.1710 Y58.1091 
G01 X-19.1790 Y58.1172 
G01 X-19.2214 Y58.1817 
G01 X-19.2655 Y58.2453 
G01 X-19.2700 Y58.2558 
G01 X-19.2763 Y58.2654 
G01 X-19.3053 Y58.3370 
G01 X-19.3362 Y58.4079 
G01 X-19.3386 Y58.4191 
G01 X-19.3429 Y58.4297 
G01 X-19.3574 Y58.5056 
G01 X-19.8796 Y60.9112 
G01 X-19.8856 Y60.9264 
G01 X-19.8984 Y60.9977 
G01 X-19.9138 Y61.0684 
G01 X-19.9141 Y61.0848 
G01 X-19.9170 Y61.1009 
G01 X-19.9156 Y61.1733 
G01 X-19.9169 Y61.2457 
G01 X-19.9139 Y61.2618 
G01 X-19.9000 Y62.0084 
G01 X-19.9000 Y68.0002 
G01 X-19.9001 Y68.0877 
G01 X-19.8828 Y68.1752 
G01 X-19.8657 Y68.2616 
G01 X-19.8316 Y68.3442 
G01 X-19.7980 Y68.4255 
G01 X-19.7486 Y68.4996 
G01 X-17.7977 Y71.4259 
G01 X-17.7488 Y71.4994 
G01 X-17.6997 Y71.5730 
G01 X-17.6370 Y71.6358 
G01 X-17.5744 Y71.6985 
G01 X-17.5015 Y71.7473 
G01 X-17.4271 Y71.7971 
G01 X-17.3461 Y71.8308 
G01 X-17.2634 Y71.8651 
G01 X-17.1761 Y71.8826 
G01 X-17.0896 Y71.8999 
G01 X-17.0009 Y71.9000 
G01 X-16.9123 Y71.9001 
G01 X-12.1108 Y71.9000 
G01 X-12.2717 Y72.6590 
G01 X-12.3097 Y72.7158 
G01 X-12.3819 Y72.8903 
G01 X-12.4188 Y73.0756 
G01 X-12.4188 Y73.2644 
G01 X-12.3819 Y73.4497 
G01 X-12.3097 Y73.6242 
G01 X-12.2047 Y73.7812 
G01 X-12.0712 Y73.9147 
G01 X-11.9142 Y74.0197 
G01 X-11.7397 Y74.0919 
G01 X-11.5544 Y74.1288 
G01 X-11.3656 Y74.1288 
G01 X-11.1803 Y74.0919 
G01 X-11.0058 Y74.0197 
G01 X-10.8488 Y73.9147 
G01 X-10.7153 Y73.7812 
G01 X-10.6103 Y73.6242 
G01 X-10.5380 Y73.4497 
G01 X-10.5012 Y73.2644 
G01 X-10.5012 Y73.0756 
G01 X-10.5103 Y73.0299 
G01 X-10.4626 Y72.8050 
G01 X-7.9654 Y75.2256 
G01 X-7.9654 Y75.4392 
G01 X-7.3442 Y76.0604 
G01 X-6.4658 Y76.0604 
G01 X-5.8446 Y75.4392 
G01 X-5.8446 Y74.5608 
G01 X-6.4658 Y73.9396 
G01 X-6.7059 Y73.9396 
G01 X-9.3685 Y71.3587 
G01 X-10.3009 Y70.4263 
G01 X-10.3596 Y70.3676 
G01 X-10.4176 Y70.3082 
G01 X-10.4223 Y70.3050 
G01 X-10.4263 Y70.3009 
G01 X-10.4953 Y70.2548 
G01 X-10.5637 Y70.2078 
G01 X-10.5690 Y70.2056 
G01 X-10.5737 Y70.2024 
G01 X-10.6503 Y70.1707 
G01 X-10.7266 Y70.1379 
G01 X-10.7322 Y70.1368 
G01 X-10.7375 Y70.1346 
G01 X-10.8188 Y70.1184 
G01 X-10.9001 Y70.1012 
G01 X-10.9058 Y70.1011 
G01 X-10.9114 Y70.1000 
G01 X-10.9943 Y70.1000 
G01 X-11.0774 Y70.0990 
G01 X-11.0829 Y70.1000 
G01 X-16.5183 Y70.1000 
G01 X-18.1000 Y67.7275 
G01 X-18.1000 Y62.0802 
G01 X-18.0985 Y62.0718 
G01 X-18.1000 Y61.9915 
G01 X-18.1000 Y61.9114 
G01 X-18.1017 Y61.9030 
G01 X-18.1137 Y61.2610 
G01 X-17.6512 Y59.1311 
G01 X-15.1130 Y56.5528 
G01 X-11.8894 Y57.3713 
G01 X-11.8675 Y57.3804 
G01 X-11.8037 Y57.3931 
G01 X-11.7406 Y57.4091 
G01 X-11.7169 Y57.4104 
G01 X-11.6936 Y57.4150 
G01 X-11.6285 Y57.4150 
G01 X-11.5635 Y57.4184 
G01 X-11.5401 Y57.4150 
G01 X-6.7412 Y57.4150 
G01 X-6.6789 Y57.4186 
G01 X-6.6528 Y57.4150 
G01 X-6.6264 Y57.4150 
G01 X-6.5652 Y57.4028 
G01 X-6.5033 Y57.3942 
G01 X-6.4784 Y57.3856 
G01 X-6.4525 Y57.3804 
G01 X-6.3948 Y57.3565 
G01 X-6.3358 Y57.3360 
G01 X-6.3131 Y57.3227 
G01 X-6.2887 Y57.3126 
G01 X-6.2368 Y57.2779 
G01 X-6.1830 Y57.2463 
G01 X-6.1632 Y57.2287 
G01 X-6.1413 Y57.2141 
G01 X-6.0972 Y57.1699 
G01 X-5.7098 Y56.8253 
G01 X-4.5347 Y56.6949 
G01 X-4.4392 Y56.7904 
G01 X-3.5608 Y56.7904 
G01 X-2.9396 Y56.1692 
G01 X-2.9396 Y55.2908 
G01 X-3.5608 Y54.6696 
G01 X-4.2213 Y54.6696 
G01 X-4.0680 Y54.4251 
G01 X-4.0086 Y54.4057 
G01 X-3.8473 Y54.3236 
G01 X-3.7008 Y54.2172 
G01 X-3.5728 Y54.0892 
G01 X-3.4664 Y53.9427 
G01 X-3.3843 Y53.7814 
G01 X-3.3283 Y53.6093 
G01 X-3.3000 Y53.4305 
G01 X-3.3000 Y39.0259 
G01 X-3.2971 Y38.9614 
G01 X-3.3000 Y38.9355 
G01 X-3.3000 Y38.9095 
G01 X-3.3101 Y38.8457 
G01 X-3.3173 Y38.7815 
G01 X-3.3242 Y38.7564 
G01 X-3.3283 Y38.7307 
G01 X-3.3483 Y38.6693 
G01 X-3.3654 Y38.6070 
G01 X-3.3762 Y38.5833 
G01 X-3.3843 Y38.5586 
G01 X-3.4136 Y38.5010 
G01 X-3.4403 Y38.4422 
G01 X-3.4546 Y38.4205 
G01 X-3.4664 Y38.3973 
G01 X-3.4685 Y38.3944 
G01 X-3.4615 Y38.3155 
G01 X-4.0585 Y23.9583 
G01 X-4.0586 Y23.8727 
G01 X-4.0637 Y23.8339 
G01 X-4.0653 Y23.7949 
G01 X-4.0800 Y23.7106 
G01 X-4.0912 Y23.6257 
G01 X-4.1013 Y23.5880 
G01 X-4.1080 Y23.5495 
G01 X-4.1336 Y23.4679 
G01 X-4.1558 Y23.3852 
G01 X-4.1699 Y23.3513 
G01 X-4.1601 Y23.3242 
G01 X-4.1346 Y23.2625 
G01 X-4.1303 Y23.2409 
G01 X-4.1228 Y23.2201 
G01 X-4.1130 Y23.1541 
G01 X-4.1000 Y23.0886 
G01 X-4.1000 Y23.0666 
G01 X-4.0968 Y23.0448 
G01 X-4.1000 Y22.9781 
G01 X-4.1000 Y17.0010 
G01 X-4.0999 Y16.9123 
G01 X-4.1170 Y16.8260 
G01 X-4.1343 Y16.7384 
G01 X-4.1680 Y16.6569 
G01 X-4.2020 Y16.5745 
G01 X-4.2507 Y16.5014 
G01 X-6.2023 Y13.5741 
G01 X-6.2512 Y13.5007 
G01 X-6.3003 Y13.4270 
G01 X-6.3630 Y13.3642 
G01 X-6.4256 Y13.3015 
G01 X-6.4985 Y13.2527 
G01 X-6.5729 Y13.2029 
G01 X-6.6538 Y13.1692 
G01 X-6.7366 Y13.1349 
G01 X-6.8239 Y13.1174 
G01 X-6.9104 Y13.1001 
G01 X-6.9991 Y13.1000 
G01 X-7.0877 Y13.0999 
G01 X-10.9990 Y13.1000 
G01 X-11.0877 Y13.0999 
G01 X-11.1740 Y13.1170 
G01 X-11.2616 Y13.1343 
G01 X-11.3432 Y13.1680 
G01 X-11.4255 Y13.2020 
G01 X-11.4986 Y13.2508 
G01 X-14.2725 Y15.1000 
G01 X-16.6272 Y15.1000 
G01 X-18.1000 Y13.6272 
G01 X-18.1000 Y5.3728 
G01 X-16.6272 Y3.9000 
G01 X-15.9000 Y3.9000 
G01 X-15.9000 Y4.0854 
G01 X-16.0341 Y4.1066 
G01 X-16.2081 Y4.1631 
G01 X-16.3710 Y4.2462 
G01 X-16.5190 Y4.3537 
G01 X-16.6483 Y4.4830 
G01 X-16.7558 Y4.6310 
G01 X-16.8389 Y4.7939 
G01 X-16.8954 Y4.9679 
G01 X-16.9240 Y5.1485 
G01 X-16.9240 Y5.3315 
G01 X-16.8954 Y5.5121 
G01 X-16.8389 Y5.6861 
G01 X-16.7558 Y5.8490 
G01 X-16.6483 Y5.9970 
G01 X-16.5190 Y6.1263 
G01 X-16.3710 Y6.2338 
G01 X-16.2081 Y6.3169 
G01 X-16.0341 Y6.3734 
G01 X-15.8535 Y6.4020 
G01 X-14.1465 Y6.4020 
G01 X-13.9659 Y6.3734 
G01 X-13.7919 Y6.3169 
G01 X-13.6290 Y6.2338 
G01 X-13.4810 Y6.1263 
G01 X-13.3517 Y5.9970 
G01 X-13.2442 Y5.8490 
G01 X-13.1611 Y5.6861 
G01 X-13.1046 Y5.5121 
G01 X-13.0760 Y5.3315 
G01 X-13.0760 Y5.1485 
G01 X-13.1046 Y4.9679 
G01 X-13.1611 Y4.7939 
G01 X-13.2442 Y4.6310 
G01 X-13.3517 Y4.4830 
G01 X-13.4810 Y4.3537 
G01 X-13.6290 Y4.2462 
G01 X-13.7919 Y4.1631 
G01 X-13.9659 Y4.1066 
G01 X-14.1000 Y4.0854 
G01 X-14.1000 Y3.9000 
G01 X-12.4204 Y3.9000 
G01 X-9.7221 Y7.1245 
G01 X-9.7558 Y7.1710 
G01 X-9.8389 Y7.3339 
G01 X-9.8954 Y7.5079 
G01 X-9.9240 Y7.6885 
G01 X-9.9240 Y7.8715 
G01 X-9.8954 Y8.0521 
G01 X-9.8389 Y8.2261 
G01 X-9.7558 Y8.3890 
G01 X-9.6483 Y8.5370 
G01 X-9.5190 Y8.6663 
G01 X-9.3710 Y8.7738 
G01 X-9.2081 Y8.8569 
G01 X-9.0341 Y8.9134 
G01 X-8.8535 Y8.9420 
G01 X-7.1465 Y8.9420 
G01 X-6.9659 Y8.9134 
G01 X-6.7919 Y8.8569 
G01 X-6.6290 Y8.7738 
G01 X-6.4810 Y8.6663 
G01 X-6.3517 Y8.5370 
G01 X-6.2442 Y8.3890 
G01 X-6.1611 Y8.2261 
G01 X-6.1046 Y8.0521 
G01 X-6.0760 Y7.8715 
G01 X-6.0760 Y7.6885 
G01 X-6.1046 Y7.5079 
G01 X-6.1611 Y7.3339 
G01 X-6.2442 Y7.1710 
G01 X-6.3517 Y7.0230 
G01 X-6.4810 Y6.8937 
G01 X-6.6290 Y6.7862 
G01 X-6.7919 Y6.7031 
G01 X-6.9659 Y6.6466 
G01 X-7.1465 Y6.6180 
G01 X-7.7988 Y6.6180 
G01 X-11.2786 Y2.4596 
G01 X-11.3009 Y2.4263 
G01 X-11.3354 Y2.3918 
G01 X-11.3667 Y2.3544 
G01 X-11.3979 Y2.3293 
G01 X-11.4263 Y2.3009 
G01 X-11.4668 Y2.2739 
G01 X-11.5048 Y2.2433 
G01 X-11.5404 Y2.2247 
G01 X-11.5737 Y2.2024 
G01 X-11.6187 Y2.1838 
G01 X-11.6619 Y2.1612 
G01 X-11.7004 Y2.1499 
G01 X-11.7375 Y2.1346 
G01 X-11.7853 Y2.1251 
G01 X-11.8321 Y2.1114 
G01 X-11.8720 Y2.1078 
G01 X-11.9114 Y2.1000 
G01 X-11.9601 Y2.1000 
G01 X-12.0087 Y2.0957 
G01 X-12.0485 Y2.1000 
G01 X-17.0886 Y2.1000 
G01 X-17.2625 Y2.1346 
G01 X-17.4263 Y2.2024 
G01 X-17.5737 Y2.3009 
G01 X-17.6991 Y2.4263 
G01 X-19.6991 Y4.4263 
G01 X-19.7976 Y4.5737 
G01 X-19.8654 Y4.7375 
G01 X-19.9000 Y4.9114 
G01 X-19.9000 Y14.0886 
G01 X-19.8654 Y14.2625 
G01 X-19.7976 Y14.4263 
G01 X-19.6991 Y14.5737 
G01 X-19.5737 Y14.6991 
G01 X-17.5737 Y16.6991 
G01 X-17.4263 Y16.7976 
G01 X-17.2625 Y16.8654 
G01 X-17.0886 Y16.9000 
G01 X-14.0009 Y16.9000 
G01 X-13.9123 Y16.9001 
G01 X-13.8259 Y16.8830 
G01 X-13.7384 Y16.8657 
G01 X-13.6568 Y16.8320 
G01 X-13.5745 Y16.7980 
G01 X-13.5013 Y16.7492 
G01 X-10.7275 Y14.9000 
G01 X-7.4817 Y14.9000 
G01 X-5.9000 Y17.2725 
G01 X-5.9000 Y22.0959 
G01 X-5.9130 Y22.0947 
G01 X-5.9985 Y22.0983 
G01 X-6.9974 Y22.0989 
G01 X-6.9116 Y21.8157 
G01 X-6.7919 Y21.7769 
G01 X-6.6290 Y21.6938 
G01 X-6.4810 Y21.5863 
G01 X-6.3517 Y21.4570 
G01 X-6.2442 Y21.3090 
G01 X-6.1611 Y21.1461 
G01 X-6.1046 Y20.9721 
G01 X-6.0760 Y20.7915 
G01 X-6.0760 Y20.6085 
G01 X-6.1046 Y20.4279 
G01 X-6.1611 Y20.2539 
G01 X-6.2442 Y20.0910 
G01 X-6.3517 Y19.9430 
G01 X-6.4810 Y19.8137 
G01 X-6.6290 Y19.7062 
G01 X-6.7919 Y19.6231 
G01 X-6.9659 Y19.5666 
G01 X-7.1465 Y19.5380 
G01 X-7.2797 Y19.5380 
G01 X-7.3079 Y19.5184 
G01 X-7.4941 Y19.4281 
G01 X-7.4110 Y19.3963 
G01 X-7.2822 Y19.3220 
G01 X-7.1465 Y19.3220 
G01 X-6.9659 Y19.2934 
G01 X-6.7919 Y19.2369 
G01 X-6.6290 Y19.1538 
G01 X-6.4810 Y19.0463 
G01 X-6.3517 Y18.9170 
G01 X-6.2442 Y18.7690 
G01 X-6.1611 Y18.6061 
G01 X-6.1046 Y18.4321 
G01 X-6.0760 Y18.2515 
G01 X-6.0760 Y18.0685 
G01 X-6.1046 Y17.8879 
G01 X-6.1611 Y17.7139 
G01 X-6.2442 Y17.5510 
G01 X-6.3517 Y17.4030 
G01 X-6.4810 Y17.2737 
G01 X-6.6290 Y17.1662 
G01 X-6.7919 Y17.0831 
G01 X-6.9659 Y17.0266 
G01 X-7.1465 Y16.9980 
G01 X-7.2827 Y16.9980 
G01 X-7.3461 Y16.9568 
G01 X-7.5423 Y16.8693 
G01 X-7.7499 Y16.8136 
G01 X-7.9636 Y16.7911 
G01 X-10.4031 Y16.9179 
G01 X-10.4272 Y16.8946 
G01 X-10.6277 Y16.7468 
G01 X-10.8458 Y16.6264 
G01 X-11.0777 Y16.5356 
G01 X-11.3194 Y16.4757 
G01 X-11.5669 Y16.4480 
G01 X-11.8160 Y16.4527 
G01 X-12.0622 Y16.4900 
G01 X-12.3015 Y16.5590 
G01 X-57.7439 Y36.4116 
G01 X-57.8422 Y36.4523 
G01 X-57.8580 Y36.4614 
G01 X-57.8748 Y36.4688 
G01 X-57.9657 Y36.5236 
G01 X-58.0578 Y36.5768 
G01 X-58.0724 Y36.5880 
G01 X-58.0880 Y36.5974 
G01 X-58.1710 Y36.6637 
G01 X-58.2554 Y36.7284 
G01 X-58.2684 Y36.7414 
G01 X-58.2827 Y36.7528 
G01 X-58.3563 Y36.8293 
G01 X-58.4316 Y36.9046 
G01 X-58.4427 Y36.9191 
G01 X-58.4554 Y36.9322 
G01 X-58.5185 Y37.0178 
G01 X-58.5832 Y37.1022 
G01 X-58.5923 Y37.1180 
G01 X-58.6032 Y37.1327 
G01 X-58.6546 Y37.2258 
G01 X-58.7077 Y37.3178 
G01 X-58.7147 Y37.3348 
G01 X-58.7236 Y37.3508 
G01 X-58.7623 Y37.4497 
G01 X-58.8030 Y37.5480 
G01 X-58.8078 Y37.5656 
G01 X-58.8144 Y37.5827 
G01 X-58.8400 Y37.6858 
G01 X-58.8675 Y37.7885 
G01 X-58.8699 Y37.8067 
G01 X-58.8743 Y37.8244 
G01 X-58.8861 Y37.9301 
G01 X-58.9000 Y38.0355 
G01 X-58.9000 Y38.0538 
G01 X-58.9020 Y38.0719 
G01 X-58.9000 Y38.1783 
G01 X-58.9000 Y48.1245 
G01 X-58.8675 Y48.3715 
G01 X-58.8030 Y48.6120 
G01 X-58.7077 Y48.8422 
G01 X-58.5832 Y49.0578 
G01 X-58.4316 Y49.2554 
G01 X-56.2554 Y51.4316 
G01 X-56.0578 Y51.5832 
G01 X-55.8422 Y51.7077 
G01 X-55.6120 Y51.8030 
G01 X-55.3715 Y51.8675 
G01 X-55.1245 Y51.9000 
G01 X-54.8755 Y51.9000 
G01 X-54.6285 Y51.8675 
G01 X-54.3880 Y51.8030 
G01 X-54.1578 Y51.7077 
G01 X-53.9422 Y51.5832 
G01 X-53.7446 Y51.4316 
G01 X-53.7130 Y51.4000 
G01 X-51.6541 Y51.4000 
G01 X-51.6299 Y51.4123 
G01 X-51.4018 Y51.4864 
G01 X-51.1649 Y51.5239 
G01 X-50.8138 Y51.5239 
G01 X-50.8412 Y51.5436 
G01 X-50.8438 Y51.5462 
G01 X-50.8469 Y51.5484 
G01 X-50.9165 Y51.6180 
G01 X-50.9867 Y51.6874 
G01 X-50.9889 Y51.6904 
G01 X-50.9916 Y51.6931 
G01 X-51.0495 Y51.7728 
G01 X-51.1079 Y51.8523 
G01 X-51.1096 Y51.8556 
G01 X-51.1119 Y51.8587 
G01 X-51.1566 Y51.9465 
G01 X-51.2019 Y52.0340 
G01 X-51.2030 Y52.0376 
G01 X-51.2048 Y52.0410 
G01 X-51.2352 Y52.1347 
G01 X-51.2662 Y52.2283 
G01 X-51.2668 Y52.2320 
G01 X-51.2680 Y52.2356 
G01 X-51.2834 Y52.3328 
G01 X-51.2994 Y52.4302 
G01 X-51.2994 Y52.4340 
G01 X-51.3000 Y52.4377 
G01 X-51.3000 Y52.5360 
G01 X-51.3006 Y52.6348 
G01 X-51.3000 Y52.6386 
G01 X-51.3000 Y52.6423 
G01 X-51.2846 Y52.7397 
G01 X-51.2697 Y52.8371 
G01 X-51.2686 Y52.8407 
G01 X-51.2680 Y52.8444 
G01 X-51.2375 Y52.9381 
G01 X-51.2076 Y53.0321 
G01 X-51.2059 Y53.0355 
G01 X-51.2048 Y53.0390 
G01 X-51.1601 Y53.1267 
G01 X-51.1158 Y53.2149 
G01 X-51.1136 Y53.2180 
G01 X-51.1119 Y53.2213 
G01 X-51.0540 Y53.3010 
G01 X-50.9964 Y53.3812 
G01 X-50.9938 Y53.3838 
G01 X-50.9916 Y53.3869 
G01 X-50.9220 Y53.4565 
G01 X-50.8526 Y53.5267 
G01 X-50.8496 Y53.5289 
G01 X-50.8469 Y53.5316 
G01 X-50.7672 Y53.5895 
G01 X-50.6877 Y53.6479 
G01 X-50.6844 Y53.6496 
G01 X-50.6813 Y53.6519 
G01 X-50.5935 Y53.6966 
G01 X-50.5060 Y53.7419 
G01 X-50.5024 Y53.7430 
G01 X-50.4990 Y53.7448 
G01 X-50.4466 Y53.7618 
G01 X-50.5330 Y53.7850 
G01 X-50.7632 Y53.8803 
G01 X-50.9788 Y54.0048 
G01 X-51.0560 Y54.0641 
G01 X-51.1649 Y54.0641 
G01 X-51.4018 Y54.1016 
G01 X-51.6299 Y54.1757 
G01 X-51.8437 Y54.2846 
G01 X-52.0377 Y54.4256 
G01 X-52.2074 Y54.5952 
G01 X-52.3483 Y54.7893 
G01 X-52.4572 Y55.0030 
G01 X-52.5314 Y55.2311 
G01 X-52.5689 Y55.4681 
G01 X-52.5689 Y55.7079 
G01 X-52.5314 Y55.9449 
G01 X-52.4572 Y56.1730 
G01 X-52.3483 Y56.3867 
G01 X-52.2074 Y56.5808 
G01 X-52.0377 Y56.7504 
G01 X-51.8437 Y56.8914 
G01 X-51.6299 Y57.0003 
G01 X-51.4018 Y57.0744 
G01 X-51.1649 Y57.1119 
G01 X-51.0560 Y57.1119 
G01 X-50.9788 Y57.1712 
G01 X-50.7632 Y57.2957 
G01 X-50.5330 Y57.3910 
G01 X-50.2925 Y57.4555 
G01 X-50.0455 Y57.4880 
G01 X-46.1061 Y57.4880 
G01 X-46.0878 Y57.4901 
G01 X-45.9816 Y57.4880 
G01 X-45.8755 Y57.4880 
G01 X-45.8572 Y57.4856 
G01 X-45.8388 Y57.4852 
G01 X-45.7339 Y57.4694 
G01 X-45.6285 Y57.4555 
G01 X-45.6107 Y57.4507 
G01 X-45.5925 Y57.4480 
G01 X-45.4905 Y57.4185 
G01 X-45.3880 Y57.3910 
G01 X-45.3709 Y57.3840 
G01 X-45.3532 Y57.3789 
G01 X-45.2559 Y57.3363 
G01 X-45.1578 Y57.2957 
G01 X-45.1419 Y57.2865 
G01 X-45.1250 Y57.2791 
G01 X-45.0341 Y57.2243 
G01 X-44.9422 Y57.1712 
G01 X-44.9275 Y57.1600 
G01 X-44.9118 Y57.1504 
G01 X-44.8288 Y57.0842 
G01 X-44.7446 Y57.0196 
G01 X-44.7315 Y57.0065 
G01 X-42.4285 Y55.1676 
G01 X-33.3634 Y47.9291 
G01 X-12.4434 Y47.9006 
G01 X-12.3418 Y47.9509 
G01 X-11.7234 Y49.9626 
G01 X-11.6211 Y52.1241 
G01 X-11.9436 Y52.4466 
G01 X-11.9436 Y53.4934 
G01 X-11.2034 Y54.2336 
G01 X-10.1566 Y54.2336 
G01 X-9.4164 Y53.4934 
G01 X-9.4164 Y52.4466 
G01 X-9.8230 Y52.0400 
G01 X-9.9278 Y49.8279 
G01 X-9.9254 Y49.8032 
G01 X-9.9320 Y49.7395 
G01 X-9.9350 Y49.6755 
G01 X-9.9410 Y49.6515 
G01 X-9.9435 Y49.6269 
G01 X-9.9623 Y49.5656 
G01 X-9.9778 Y49.5034 
G01 X-9.9883 Y49.4811 
G01 X-10.1614 Y48.9181 
G01 X-9.9231 Y48.9341 
G01 X-9.6746 Y48.9182 
G01 X-9.4302 Y48.8700 
G01 X-9.1942 Y48.7903 
G01 X-8.9707 Y48.6805 
G01 X-8.7634 Y48.5425 
G01 X-8.5758 Y48.3786 
G01 X-8.4113 Y48.1916 
G01 X-8.2726 Y47.9847 
G01 X-8.1621 Y47.7615 
G01 X-8.0816 Y47.5258 
G01 X-8.0326 Y47.2816 
G01 X-8.0159 Y47.0331 
G01 X-8.0318 Y46.7846 
G01 X-8.0800 Y46.5402 
G01 X-8.1597 Y46.3042 
G01 X-8.2695 Y46.0807 
G01 X-8.4075 Y45.8734 
G01 X-8.5714 Y45.6858 
G01 X-8.7584 Y45.5213 
G01 X-8.9653 Y45.3826 
G01 X-11.1037 Y44.3237 
G01 X-11.1602 Y44.2911 
G01 X-11.2151 Y44.2685 
G01 X-11.2684 Y44.2421 
G01 X-11.3302 Y44.2210 
G01 X-11.3904 Y44.1961 
G01 X-11.4479 Y44.1808 
G01 X-11.5042 Y44.1616 
G01 X-11.5681 Y44.1488 
G01 X-11.6311 Y44.1320 
G01 X-11.6900 Y44.1243 
G01 X-11.7484 Y44.1126 
G01 X-11.8134 Y44.1083 
G01 X-11.8781 Y44.0998 
G01 X-11.9375 Y44.0999 
G01 X-11.9969 Y44.0959 
G01 X-12.0619 Y44.1001 
G01 X-33.9252 Y44.1299 
G01 X-33.9422 Y44.1279 
G01 X-34.0497 Y44.1300 
G01 X-34.1571 Y44.1302 
G01 X-34.1741 Y44.1324 
G01 X-34.1912 Y44.1328 
G01 X-34.2974 Y44.1488 
G01 X-34.4040 Y44.1630 
G01 X-34.4206 Y44.1675 
G01 X-34.4375 Y44.1700 
G01 X-34.5407 Y44.1998 
G01 X-34.6445 Y44.2278 
G01 X-34.6603 Y44.2344 
G01 X-34.6768 Y44.2391 
G01 X-34.7753 Y44.2822 
G01 X-34.8745 Y44.3234 
G01 X-34.8893 Y44.3320 
G01 X-34.9050 Y44.3389 
G01 X-34.9970 Y44.3944 
G01 X-35.0900 Y44.4483 
G01 X-35.1036 Y44.4587 
G01 X-35.1182 Y44.4676 
G01 X-35.2022 Y44.5346 
G01 X-35.2874 Y44.6001 
G01 X-35.2995 Y44.6123 
G01 X-44.6050 Y52.0427 
G01 X-44.6738 Y52.0976 
G01 X-48.4247 Y51.4814 
G01 X-48.2121 Y51.4123 
G01 X-47.9983 Y51.3034 
G01 X-47.8043 Y51.1624 
G01 X-47.6346 Y50.9928 
G01 X-47.4937 Y50.7987 
G01 X-47.3848 Y50.5850 
G01 X-47.3106 Y50.3569 
G01 X-47.2731 Y50.1199 
G01 X-47.2731 Y49.8801 
G01 X-47.3106 Y49.6431 
G01 X-47.3848 Y49.4150 
G01 X-47.4937 Y49.2013 
G01 X-47.6346 Y49.0072 
G01 X-47.8043 Y48.8376 
G01 X-47.9983 Y48.6966 
G01 X-48.2121 Y48.5877 
G01 X-48.4402 Y48.5136 
G01 X-48.6771 Y48.4761 
G00 Z2.5400 
G00 X-11.2034 Y61.8536 
G01 Z-0.2000 F254.00 
G01 X-10.1566 Y61.8536 F508.00 
G01 X-9.4164 Y61.1134 
G01 X-9.4164 Y60.0666 
G01 X-10.1566 Y59.3264 
G01 X-11.2034 Y59.3264 
G01 X-11.5670 Y59.6900 
G01 X-12.3330 Y59.6900 
G01 X-12.6966 Y59.3264 
G01 X-13.7434 Y59.3264 
G01 X-14.4836 Y60.0666 
G01 X-14.4836 Y61.1134 
G01 X-13.7434 Y61.8536 
G01 X-12.6966 Y61.8536 
G01 X-12.3330 Y61.4900 
G01 X-11.5670 Y61.4900 
G01 X-11.2034 Y61.8536 
G00 Z2.5400 
G00 X-18.5219 Y49.1210 
G01 Z-0.2000 F254.00 
G01 X-18.5464 Y49.1295 F508.00 
G01 X-18.5717 Y49.1346 
G01 X-18.6299 Y49.1587 
G01 X-23.1520 Y50.7362 
G01 X-23.1757 Y50.7408 
G01 X-23.2355 Y50.7653 
G01 X-23.2965 Y50.7866 
G01 X-23.3174 Y50.7989 
G01 X-23.3397 Y50.8080 
G01 X-23.3936 Y50.8438 
G01 X-23.4493 Y50.8765 
G01 X-23.4674 Y50.8926 
G01 X-23.4875 Y50.9060 
G01 X-23.5334 Y50.9515 
G01 X-23.5816 Y50.9946 
G01 X-23.5962 Y51.0139 
G01 X-23.6133 Y51.0309 
G01 X-23.6494 Y51.0845 
G01 X-23.6884 Y51.1361 
G01 X-23.6989 Y51.1579 
G01 X-23.7124 Y51.1779 
G01 X-23.7373 Y51.2375 
G01 X-23.7654 Y51.2958 
G01 X-23.7715 Y51.3192 
G01 X-23.7808 Y51.3415 
G01 X-23.7937 Y51.4048 
G01 X-23.8099 Y51.4674 
G01 X-23.8113 Y51.4915 
G01 X-23.8161 Y51.5152 
G01 X-23.8163 Y51.5798 
G01 X-23.8200 Y51.6444 
G01 X-23.8166 Y51.6683 
G01 X-23.8997 Y73.9159 
G01 X-23.9011 Y73.9237 
G01 X-23.9000 Y74.0044 
G01 X-23.9003 Y74.0853 
G01 X-23.8988 Y74.0930 
G01 X-23.8987 Y74.1009 
G01 X-23.8819 Y74.1800 
G01 X-23.8664 Y74.2593 
G01 X-23.8634 Y74.2666 
G01 X-23.8617 Y74.2743 
G01 X-23.8298 Y74.3486 
G01 X-23.7992 Y74.4233 
G01 X-23.7948 Y74.4299 
G01 X-23.7917 Y74.4372 
G01 X-23.7459 Y74.5037 
G01 X-23.7012 Y74.5711 
G01 X-23.6956 Y74.5767 
G01 X-23.6912 Y74.5832 
G01 X-23.6332 Y74.6396 
G01 X-23.5763 Y74.6969 
G01 X-23.5698 Y74.7013 
G01 X-23.5641 Y74.7069 
G01 X-23.4963 Y74.7508 
G01 X-23.4293 Y74.7960 
G01 X-23.4220 Y74.7990 
G01 X-23.4154 Y74.8033 
G01 X-23.3403 Y74.8332 
G01 X-23.2657 Y74.8644 
G01 X-23.2580 Y74.8660 
G01 X-23.2507 Y74.8689 
G01 X-23.1712 Y74.8836 
G01 X-23.0920 Y74.8997 
G01 X-23.0841 Y74.8997 
G01 X-14.4521 Y76.4943 
G01 X-14.4142 Y76.5197 
G01 X-14.2397 Y76.5919 
G01 X-14.0544 Y76.6288 
G01 X-13.8656 Y76.6288 
G01 X-13.6803 Y76.5919 
G01 X-13.5058 Y76.5197 
G01 X-13.3488 Y76.4147 
G01 X-13.2153 Y76.2812 
G01 X-13.1103 Y76.1242 
G01 X-13.0380 Y75.9497 
G01 X-13.0012 Y75.7644 
G01 X-13.0012 Y75.5756 
G01 X-13.0380 Y75.3903 
G01 X-13.1103 Y75.2158 
G01 X-13.2153 Y75.0588 
G01 X-13.3488 Y74.9253 
G01 X-13.5058 Y74.8203 
G01 X-13.6803 Y74.7480 
G01 X-13.8656 Y74.7112 
G01 X-14.0544 Y74.7112 
G01 X-14.1225 Y74.7247 
G01 X-22.0972 Y73.2516 
G01 X-22.0188 Y52.2473 
G01 X-18.1567 Y50.9000 
G01 X-14.3728 Y50.9000 
G01 X-14.1200 Y51.1528 
G01 X-14.1200 Y52.0830 
G01 X-14.4836 Y52.4466 
G01 X-14.4836 Y53.4934 
G01 X-13.7434 Y54.2336 
G01 X-12.6966 Y54.2336 
G01 X-11.9564 Y53.4934 
G01 X-11.9564 Y52.4466 
G01 X-12.3200 Y52.0830 
G01 X-12.3200 Y50.6914 
G01 X-12.3546 Y50.5175 
G01 X-12.4224 Y50.3537 
G01 X-12.5209 Y50.2063 
G01 X-12.6463 Y50.0809 
G01 X-13.4263 Y49.3009 
G01 X-13.5737 Y49.2024 
G01 X-13.7375 Y49.1346 
G01 X-13.9114 Y49.1000 
G01 X-18.2835 Y49.1000 
G01 X-18.3464 Y49.0964 
G01 X-18.3720 Y49.1000 
G01 X-18.3978 Y49.1000 
G01 X-18.4596 Y49.1123 
G01 X-18.5219 Y49.1210 
G00 Z2.5400 
G00 Z5.0000 
M05
M02
