(.../Program Files (x86)/Eagle/ulp/pcb-gcode.ulp)
(Copyright 2005 - 2012 by John Johnson)
(See readme.txt for licensing terms.)
(This file generated from the board:)
(.../eagle/Active Load/Active Load.brd)
(Current profile is .../Eagle/ulp/profiles/generic.pp  )
(This file generated 27-1-2020 22:21:04)
(Settings from pcb-machine.h)
(  Tool Size)
(0.2000 )
(Z Axis Settings)
(  High     Up        Down     Drill)
(5.0000 	2.5400 	-0.2000 	-2.5000 )
(spindle on time = 2.0000)
(milling depth = -0.3000)
(text depth = -0.1000)
(tool change at 0.0000 -5.0000 5.0000 )
(feed rate xy = F508.00 )
(feed rate z  = F254.00 )
(Settings from pcb-defaults.h)
(isolate min = 0.1000)
(isolate max = 0.3000)
(isolate step = 0.2000)
(Generated bottom outlines, bottom drill, )
(Unit of measure: mm)
( Tool|       Size       |  Min Sub |  Max Sub |   Count )
( T01  3.200mm 0.1260in 0.0000in 0.0000in )
( T02  0.610mm 0.0240in 0.0000in 0.0000in )
( T03  0.800mm 0.0315in 0.0000in 0.0000in )
( T04  0.813mm 0.0320in 0.0000in 0.0000in )
( T05  0.914mm 0.0360in 0.0000in 0.0000in )
( T06  1.016mm 0.0400in 0.0000in 0.0000in )
( T07  1.499mm 0.0590in 0.0000in 0.0000in )
(Metric Mode)
G21
(Absolute Coordinates)
G90
M05
G00 Z5.0000 
G00 X0.0000 Y-5.0000 
M06 T01  ; 3.2000 
G01 Z0.0000 F254.00 
M06 T01  ; 3.2000 
G00 Z2.5400 
M03
G04 P2.000000
G00 Z2.540000
G00 X-101.0000 Y86.0000 
G01 Z-2.5000 F254.00 
G01 Z2.540000
(R2.5400  P0.500000)
(G00 Z2.540000)
G00 X-101.0000 Y14.0000 
G01 Z-2.500000
G01 Z2.540000
(G00 Z2.540000)
G00 X-107.0000 Y97.0000 
G01 Z-2.500000
G01 Z2.540000
(G00 Z2.540000)
G00 X-107.0000 Y3.0000 
G01 Z-2.500000
G01 Z2.540000
(G00 Z2.540000)
G00 X-29.0000 Y86.0000 
G01 Z-2.500000
G01 Z2.540000
(G00 Z2.540000)
G00 X-29.0000 Y14.0000 
G01 Z-2.500000
G01 Z2.540000
(G00 Z2.540000)
G00 X-3.0000 Y97.0000 
G01 Z-2.500000
G01 Z2.540000
(G00 Z2.540000)
G00 X-3.0000 Y3.0000 
G01 Z-2.500000
G01 Z2.540000
M05
G00 Z5.0000 
M06 T02  ; 0.6096 
G01 Z0.0000 F254.00 
M06 T02  ; 0.6096 
G00 Z2.5400 
M03
G04 P2.000000
G00 Z2.540000
G00 X-11.4600 Y73.1700 
G01 Z-2.5000 F254.00 
G01 Z2.540000
(R2.5400  P0.500000)
(G00 Z2.540000)
G00 X-11.4600 Y78.1700 
G01 Z-2.500000
G01 Z2.540000
(G00 Z2.540000)
G00 X-13.9600 Y75.6700 
G01 Z-2.500000
G01 Z2.540000
M05
G00 Z5.0000 
M06 T03  ; 0.8000 
G01 Z0.0000 F254.00 
M06 T03  ; 0.8000 
G00 Z2.5400 
M03
G04 P2.000000
G00 Z2.540000
G00 X-50.0000 Y47.4600 
G01 Z-2.5000 F254.00 
G01 Z2.540000
(R2.5400  P0.500000)
(G00 Z2.540000)
G00 X-50.0000 Y52.5400 
G01 Z-2.500000
G01 Z2.540000
M05
G00 Z5.0000 
M06 T04  ; 0.8128 
G01 Z0.0000 F254.00 
M06 T04  ; 0.8128 
G00 Z2.5400 
M03
G04 P2.000000
G00 Z2.540000
G00 X-4.0000 Y55.7300 
G01 Z-2.5000 F254.00 
G01 Z2.540000
(R2.5400  P0.500000)
(G00 Z2.540000)
G00 X-4.0000 Y58.2700 
G01 Z-2.500000
G01 Z2.540000
(G00 Z2.540000)
G00 X-5.0000 Y73.7300 
G01 Z-2.500000
G01 Z2.540000
(G00 Z2.540000)
G00 X-5.0000 Y76.2700 
G01 Z-2.500000
G01 Z2.540000
(G00 Z2.540000)
G00 X-6.9050 Y75.0000 
G01 Z-2.500000
G01 Z2.540000
(G00 Z2.540000)
G00 X-8.1400 Y52.9700 
G01 Z-2.500000
G01 Z2.540000
(G00 Z2.540000)
G00 X-8.1400 Y60.5900 
G01 Z-2.500000
G01 Z2.540000
(G00 Z2.540000)
G00 X-10.6800 Y52.9700 
G01 Z-2.500000
G01 Z2.540000
(G00 Z2.540000)
G00 X-10.6800 Y60.5900 
G01 Z-2.500000
G01 Z2.540000
(G00 Z2.540000)
G00 X-13.2200 Y52.9700 
G01 Z-2.500000
G01 Z2.540000
(G00 Z2.540000)
G00 X-13.2200 Y60.5900 
G01 Z-2.500000
G01 Z2.540000
(G00 Z2.540000)
G00 X-15.7600 Y52.9700 
G01 Z-2.500000
G01 Z2.540000
(G00 Z2.540000)
G00 X-15.7600 Y60.5900 
G01 Z-2.500000
G01 Z2.540000
M05
G00 Z5.0000 
M06 T05  ; 0.9144 
G01 Z0.0000 F254.00 
M06 T05  ; 0.9144 
G00 Z2.5400 
M03
G04 P2.000000
G00 Z2.540000
G00 X-15.6700 Y66.7100 
G01 Z-2.5000 F254.00 
G01 Z2.540000
(R2.5400  P0.500000)
(G00 Z2.540000)
G00 X-2.9700 Y66.7100 
G01 Z-2.500000
G01 Z2.540000
M05
G00 Z5.0000 
M06 T06  ; 1.0160 
G01 Z0.0000 F254.00 
M06 T06  ; 1.0160 
G00 Z2.5400 
M03
G04 P2.000000
G00 Z2.540000
G00 X-8.0000 Y7.7800 
G01 Z-2.5000 F254.00 
G01 Z2.540000
(R2.5400  P0.500000)
(G00 Z2.540000)
G00 X-8.0000 Y10.3200 
G01 Z-2.500000
G01 Z2.540000
(G00 Z2.540000)
G00 X-8.0000 Y18.1600 
G01 Z-2.500000
G01 Z2.540000
(G00 Z2.540000)
G00 X-8.0000 Y20.7000 
G01 Z-2.500000
G01 Z2.540000
(G00 Z2.540000)
G00 X-9.9200 Y47.0300 
G01 Z-2.500000
G01 Z2.540000
(G00 Z2.540000)
G00 X-9.9200 Y24.1700 
G01 Z-2.500000
G01 Z2.540000
(G00 Z2.540000)
G00 X-15.0000 Y5.2400 
G01 Z-2.500000
G01 Z2.540000
(G00 Z2.540000)
G00 X-15.0000 Y7.7800 
G01 Z-2.500000
G01 Z2.540000
(G00 Z2.540000)
G00 X-15.0000 Y10.3200 
G01 Z-2.500000
G01 Z2.540000
(G00 Z2.540000)
G00 X-15.0000 Y12.8600 
G01 Z-2.500000
G01 Z2.540000
M05
G00 Z5.0000 
M06 T07  ; 1.4986 
G01 Z0.0000 F254.00 
M06 T07  ; 1.4986 
G00 Z2.5400 
M03
G04 P2.000000
G00 Z2.540000
G00 X-49.9210 Y44.4120 
G01 Z-2.5000 F254.00 
G01 Z2.540000
(R2.5400  P0.500000)
(G00 Z2.540000)
G00 X-49.9210 Y50.0000 
G01 Z-2.500000
G01 Z2.540000
(G00 Z2.540000)
G00 X-49.9210 Y55.5880 
G01 Z-2.500000
G01 Z2.540000
T01 
G00 Z5.0000 
M05
M02
